<?xml version="1.0" encoding="UTF-8"?>
<map version="1.10" tiledversion="1.11.2" orientation="orthogonal" renderorder="right-down" width="120" height="17" tilewidth="32" tileheight="32" infinite="0" nextlayerid="21" nextobjectid="121">
 <editorsettings>
  <export format="tmx"/>
 </editorsettings>
 <tileset firstgid="1" name="key" tilewidth="32" tileheight="32" tilecount="12" columns="12">
  <image source="../../../../../Desktop/2025/Jeeters_Castle/key.png" width="384" height="32"/>
  <tile id="0">
   <animation>
    <frame tileid="0" duration="150"/>
    <frame tileid="1" duration="150"/>
    <frame tileid="2" duration="150"/>
    <frame tileid="3" duration="150"/>
    <frame tileid="4" duration="150"/>
    <frame tileid="5" duration="150"/>
    <frame tileid="6" duration="150"/>
    <frame tileid="7" duration="150"/>
    <frame tileid="8" duration="150"/>
    <frame tileid="9" duration="150"/>
    <frame tileid="10" duration="150"/>
    <frame tileid="11" duration="150"/>
   </animation>
  </tile>
 </tileset>
 <tileset firstgid="13" name="Objects" tilewidth="32" tileheight="32" tilecount="400" columns="40">
  <image source="../../../../../Desktop/2025/Jeeters_Castle/Objects.png" width="1280" height="320"/>
 </tileset>
 <tileset firstgid="413" name="Predator_plant" tilewidth="32" tileheight="32" tilecount="630" columns="14">
  <image source="../../../../../Desktop/2025/Jeeters_Castle/Predator_plant.png" width="448" height="1440"/>
  <tile id="0">
   <animation>
    <frame tileid="0" duration="150"/>
    <frame tileid="0" duration="150"/>
    <frame tileid="0" duration="150"/>
    <frame tileid="0" duration="150"/>
    <frame tileid="70" duration="150"/>
    <frame tileid="140" duration="150"/>
    <frame tileid="210" duration="150"/>
    <frame tileid="280" duration="150"/>
    <frame tileid="350" duration="150"/>
    <frame tileid="420" duration="150"/>
    <frame tileid="490" duration="150"/>
    <frame tileid="560" duration="150"/>
   </animation>
  </tile>
  <tile id="1">
   <animation>
    <frame tileid="1" duration="150"/>
    <frame tileid="1" duration="150"/>
    <frame tileid="1" duration="150"/>
    <frame tileid="1" duration="150"/>
    <frame tileid="71" duration="150"/>
    <frame tileid="141" duration="150"/>
    <frame tileid="211" duration="150"/>
    <frame tileid="281" duration="150"/>
    <frame tileid="351" duration="150"/>
    <frame tileid="421" duration="150"/>
    <frame tileid="491" duration="150"/>
    <frame tileid="561" duration="150"/>
   </animation>
  </tile>
  <tile id="2">
   <animation>
    <frame tileid="2" duration="150"/>
    <frame tileid="2" duration="150"/>
    <frame tileid="2" duration="150"/>
    <frame tileid="2" duration="150"/>
    <frame tileid="72" duration="150"/>
    <frame tileid="142" duration="150"/>
    <frame tileid="212" duration="150"/>
    <frame tileid="282" duration="150"/>
    <frame tileid="352" duration="150"/>
    <frame tileid="422" duration="150"/>
    <frame tileid="492" duration="150"/>
    <frame tileid="562" duration="150"/>
   </animation>
  </tile>
  <tile id="3">
   <animation>
    <frame tileid="3" duration="150"/>
    <frame tileid="3" duration="150"/>
    <frame tileid="3" duration="150"/>
    <frame tileid="3" duration="150"/>
    <frame tileid="73" duration="150"/>
    <frame tileid="143" duration="150"/>
    <frame tileid="213" duration="150"/>
    <frame tileid="283" duration="150"/>
    <frame tileid="353" duration="150"/>
    <frame tileid="423" duration="150"/>
    <frame tileid="493" duration="150"/>
    <frame tileid="563" duration="150"/>
   </animation>
  </tile>
  <tile id="4">
   <animation>
    <frame tileid="4" duration="150"/>
    <frame tileid="4" duration="150"/>
    <frame tileid="4" duration="150"/>
    <frame tileid="4" duration="150"/>
    <frame tileid="74" duration="150"/>
    <frame tileid="144" duration="150"/>
    <frame tileid="214" duration="150"/>
    <frame tileid="284" duration="150"/>
    <frame tileid="354" duration="150"/>
    <frame tileid="424" duration="150"/>
    <frame tileid="494" duration="150"/>
    <frame tileid="564" duration="150"/>
   </animation>
  </tile>
  <tile id="7">
   <animation>
    <frame tileid="7" duration="150"/>
    <frame tileid="7" duration="150"/>
    <frame tileid="7" duration="150"/>
    <frame tileid="7" duration="150"/>
    <frame tileid="77" duration="150"/>
    <frame tileid="147" duration="150"/>
    <frame tileid="217" duration="150"/>
    <frame tileid="287" duration="150"/>
    <frame tileid="357" duration="150"/>
    <frame tileid="427" duration="150"/>
    <frame tileid="497" duration="150"/>
    <frame tileid="567" duration="150"/>
   </animation>
  </tile>
  <tile id="8">
   <animation>
    <frame tileid="8" duration="150"/>
    <frame tileid="8" duration="150"/>
    <frame tileid="8" duration="150"/>
    <frame tileid="8" duration="150"/>
    <frame tileid="78" duration="150"/>
    <frame tileid="148" duration="150"/>
    <frame tileid="218" duration="150"/>
    <frame tileid="288" duration="150"/>
    <frame tileid="358" duration="150"/>
    <frame tileid="428" duration="150"/>
    <frame tileid="498" duration="150"/>
    <frame tileid="568" duration="150"/>
   </animation>
  </tile>
  <tile id="9">
   <animation>
    <frame tileid="9" duration="150"/>
    <frame tileid="9" duration="150"/>
    <frame tileid="9" duration="150"/>
    <frame tileid="9" duration="150"/>
    <frame tileid="79" duration="150"/>
    <frame tileid="149" duration="150"/>
    <frame tileid="219" duration="150"/>
    <frame tileid="289" duration="150"/>
    <frame tileid="359" duration="150"/>
    <frame tileid="429" duration="150"/>
    <frame tileid="499" duration="150"/>
    <frame tileid="569" duration="150"/>
   </animation>
  </tile>
  <tile id="10">
   <animation>
    <frame tileid="10" duration="150"/>
    <frame tileid="10" duration="150"/>
    <frame tileid="10" duration="150"/>
    <frame tileid="10" duration="150"/>
    <frame tileid="80" duration="150"/>
    <frame tileid="150" duration="150"/>
    <frame tileid="220" duration="150"/>
    <frame tileid="290" duration="150"/>
    <frame tileid="360" duration="150"/>
    <frame tileid="430" duration="150"/>
    <frame tileid="500" duration="150"/>
    <frame tileid="570" duration="150"/>
   </animation>
  </tile>
  <tile id="14">
   <animation>
    <frame tileid="14" duration="150"/>
    <frame tileid="14" duration="150"/>
    <frame tileid="14" duration="150"/>
    <frame tileid="14" duration="150"/>
    <frame tileid="84" duration="150"/>
    <frame tileid="154" duration="150"/>
    <frame tileid="224" duration="150"/>
    <frame tileid="294" duration="150"/>
    <frame tileid="364" duration="150"/>
    <frame tileid="434" duration="150"/>
    <frame tileid="504" duration="150"/>
    <frame tileid="574" duration="150"/>
   </animation>
  </tile>
  <tile id="15">
   <animation>
    <frame tileid="15" duration="150"/>
    <frame tileid="15" duration="150"/>
    <frame tileid="15" duration="150"/>
    <frame tileid="15" duration="150"/>
    <frame tileid="85" duration="150"/>
    <frame tileid="155" duration="150"/>
    <frame tileid="225" duration="150"/>
    <frame tileid="295" duration="150"/>
    <frame tileid="365" duration="150"/>
    <frame tileid="435" duration="150"/>
    <frame tileid="505" duration="150"/>
    <frame tileid="575" duration="150"/>
   </animation>
  </tile>
  <tile id="16">
   <animation>
    <frame tileid="16" duration="150"/>
    <frame tileid="16" duration="150"/>
    <frame tileid="16" duration="150"/>
    <frame tileid="16" duration="150"/>
    <frame tileid="86" duration="150"/>
    <frame tileid="156" duration="150"/>
    <frame tileid="226" duration="150"/>
    <frame tileid="296" duration="150"/>
    <frame tileid="366" duration="150"/>
    <frame tileid="436" duration="150"/>
    <frame tileid="506" duration="150"/>
    <frame tileid="576" duration="150"/>
   </animation>
  </tile>
  <tile id="17">
   <animation>
    <frame tileid="17" duration="150"/>
    <frame tileid="17" duration="150"/>
    <frame tileid="17" duration="150"/>
    <frame tileid="17" duration="150"/>
    <frame tileid="87" duration="150"/>
    <frame tileid="157" duration="150"/>
    <frame tileid="227" duration="150"/>
    <frame tileid="297" duration="150"/>
    <frame tileid="367" duration="150"/>
    <frame tileid="437" duration="150"/>
    <frame tileid="507" duration="150"/>
    <frame tileid="577" duration="150"/>
   </animation>
  </tile>
  <tile id="18">
   <animation>
    <frame tileid="18" duration="150"/>
    <frame tileid="18" duration="150"/>
    <frame tileid="18" duration="150"/>
    <frame tileid="18" duration="150"/>
    <frame tileid="88" duration="150"/>
    <frame tileid="158" duration="150"/>
    <frame tileid="228" duration="150"/>
    <frame tileid="298" duration="150"/>
    <frame tileid="368" duration="150"/>
    <frame tileid="438" duration="150"/>
    <frame tileid="508" duration="150"/>
    <frame tileid="578" duration="150"/>
   </animation>
  </tile>
  <tile id="19">
   <animation>
    <frame tileid="19" duration="150"/>
    <frame tileid="19" duration="150"/>
    <frame tileid="19" duration="150"/>
    <frame tileid="19" duration="150"/>
    <frame tileid="89" duration="150"/>
    <frame tileid="159" duration="150"/>
    <frame tileid="229" duration="150"/>
    <frame tileid="299" duration="150"/>
    <frame tileid="369" duration="150"/>
    <frame tileid="439" duration="150"/>
    <frame tileid="509" duration="150"/>
    <frame tileid="579" duration="150"/>
   </animation>
  </tile>
  <tile id="20">
   <animation>
    <frame tileid="20" duration="150"/>
    <frame tileid="20" duration="150"/>
    <frame tileid="20" duration="150"/>
    <frame tileid="20" duration="150"/>
    <frame tileid="90" duration="150"/>
    <frame tileid="160" duration="150"/>
    <frame tileid="230" duration="150"/>
    <frame tileid="300" duration="150"/>
    <frame tileid="370" duration="150"/>
    <frame tileid="440" duration="150"/>
    <frame tileid="510" duration="150"/>
    <frame tileid="580" duration="150"/>
   </animation>
  </tile>
  <tile id="21">
   <animation>
    <frame tileid="21" duration="150"/>
    <frame tileid="21" duration="150"/>
    <frame tileid="21" duration="150"/>
    <frame tileid="21" duration="150"/>
    <frame tileid="91" duration="150"/>
    <frame tileid="161" duration="150"/>
    <frame tileid="231" duration="150"/>
    <frame tileid="301" duration="150"/>
    <frame tileid="371" duration="150"/>
    <frame tileid="441" duration="150"/>
    <frame tileid="511" duration="150"/>
    <frame tileid="581" duration="150"/>
   </animation>
  </tile>
  <tile id="22">
   <animation>
    <frame tileid="22" duration="150"/>
    <frame tileid="22" duration="150"/>
    <frame tileid="22" duration="150"/>
    <frame tileid="22" duration="150"/>
    <frame tileid="92" duration="150"/>
    <frame tileid="162" duration="150"/>
    <frame tileid="232" duration="150"/>
    <frame tileid="302" duration="150"/>
    <frame tileid="372" duration="150"/>
    <frame tileid="442" duration="150"/>
    <frame tileid="512" duration="150"/>
    <frame tileid="582" duration="150"/>
   </animation>
  </tile>
  <tile id="23">
   <animation>
    <frame tileid="23" duration="150"/>
    <frame tileid="23" duration="150"/>
    <frame tileid="23" duration="150"/>
    <frame tileid="23" duration="150"/>
    <frame tileid="93" duration="150"/>
    <frame tileid="163" duration="150"/>
    <frame tileid="233" duration="150"/>
    <frame tileid="303" duration="150"/>
    <frame tileid="373" duration="150"/>
    <frame tileid="443" duration="150"/>
    <frame tileid="513" duration="150"/>
    <frame tileid="583" duration="150"/>
   </animation>
  </tile>
  <tile id="24">
   <animation>
    <frame tileid="24" duration="150"/>
    <frame tileid="24" duration="150"/>
    <frame tileid="24" duration="150"/>
    <frame tileid="24" duration="150"/>
    <frame tileid="94" duration="150"/>
    <frame tileid="164" duration="150"/>
    <frame tileid="234" duration="150"/>
    <frame tileid="304" duration="150"/>
    <frame tileid="374" duration="150"/>
    <frame tileid="444" duration="150"/>
    <frame tileid="514" duration="150"/>
    <frame tileid="584" duration="150"/>
   </animation>
  </tile>
  <tile id="25">
   <animation>
    <frame tileid="25" duration="150"/>
    <frame tileid="25" duration="150"/>
    <frame tileid="25" duration="150"/>
    <frame tileid="25" duration="150"/>
    <frame tileid="95" duration="150"/>
    <frame tileid="165" duration="150"/>
    <frame tileid="235" duration="150"/>
    <frame tileid="305" duration="150"/>
    <frame tileid="375" duration="150"/>
    <frame tileid="445" duration="150"/>
    <frame tileid="515" duration="150"/>
    <frame tileid="585" duration="150"/>
   </animation>
  </tile>
  <tile id="26">
   <animation>
    <frame tileid="26" duration="150"/>
    <frame tileid="26" duration="150"/>
    <frame tileid="26" duration="150"/>
    <frame tileid="26" duration="150"/>
    <frame tileid="96" duration="150"/>
    <frame tileid="166" duration="150"/>
    <frame tileid="236" duration="150"/>
    <frame tileid="306" duration="150"/>
    <frame tileid="376" duration="150"/>
    <frame tileid="446" duration="150"/>
    <frame tileid="516" duration="150"/>
    <frame tileid="586" duration="150"/>
   </animation>
  </tile>
  <tile id="27">
   <animation>
    <frame tileid="27" duration="150"/>
    <frame tileid="27" duration="150"/>
    <frame tileid="27" duration="150"/>
    <frame tileid="27" duration="150"/>
    <frame tileid="97" duration="150"/>
    <frame tileid="167" duration="150"/>
    <frame tileid="237" duration="150"/>
    <frame tileid="307" duration="150"/>
    <frame tileid="377" duration="150"/>
    <frame tileid="447" duration="150"/>
    <frame tileid="517" duration="150"/>
    <frame tileid="587" duration="150"/>
   </animation>
  </tile>
  <tile id="28">
   <animation>
    <frame tileid="28" duration="150"/>
    <frame tileid="28" duration="150"/>
    <frame tileid="28" duration="150"/>
    <frame tileid="28" duration="150"/>
    <frame tileid="98" duration="150"/>
    <frame tileid="168" duration="150"/>
    <frame tileid="238" duration="150"/>
    <frame tileid="308" duration="150"/>
    <frame tileid="378" duration="150"/>
    <frame tileid="448" duration="150"/>
    <frame tileid="518" duration="150"/>
    <frame tileid="588" duration="150"/>
   </animation>
  </tile>
  <tile id="29">
   <animation>
    <frame tileid="29" duration="150"/>
    <frame tileid="29" duration="150"/>
    <frame tileid="29" duration="150"/>
    <frame tileid="29" duration="150"/>
    <frame tileid="99" duration="150"/>
    <frame tileid="169" duration="150"/>
    <frame tileid="239" duration="150"/>
    <frame tileid="309" duration="150"/>
    <frame tileid="379" duration="150"/>
    <frame tileid="449" duration="150"/>
    <frame tileid="519" duration="150"/>
    <frame tileid="589" duration="150"/>
   </animation>
  </tile>
  <tile id="30">
   <animation>
    <frame tileid="30" duration="150"/>
    <frame tileid="30" duration="150"/>
    <frame tileid="30" duration="150"/>
    <frame tileid="30" duration="150"/>
    <frame tileid="100" duration="150"/>
    <frame tileid="170" duration="150"/>
    <frame tileid="240" duration="150"/>
    <frame tileid="310" duration="150"/>
    <frame tileid="380" duration="150"/>
    <frame tileid="450" duration="150"/>
    <frame tileid="520" duration="150"/>
    <frame tileid="590" duration="150"/>
   </animation>
  </tile>
  <tile id="31">
   <animation>
    <frame tileid="31" duration="150"/>
    <frame tileid="31" duration="150"/>
    <frame tileid="31" duration="150"/>
    <frame tileid="31" duration="150"/>
    <frame tileid="101" duration="150"/>
    <frame tileid="171" duration="150"/>
    <frame tileid="241" duration="150"/>
    <frame tileid="311" duration="150"/>
    <frame tileid="381" duration="150"/>
    <frame tileid="451" duration="150"/>
    <frame tileid="521" duration="150"/>
    <frame tileid="591" duration="150"/>
   </animation>
  </tile>
  <tile id="32">
   <animation>
    <frame tileid="32" duration="150"/>
    <frame tileid="32" duration="150"/>
    <frame tileid="32" duration="150"/>
    <frame tileid="32" duration="150"/>
    <frame tileid="102" duration="150"/>
    <frame tileid="172" duration="150"/>
    <frame tileid="242" duration="150"/>
    <frame tileid="312" duration="150"/>
    <frame tileid="382" duration="150"/>
    <frame tileid="452" duration="150"/>
    <frame tileid="522" duration="150"/>
    <frame tileid="592" duration="150"/>
   </animation>
  </tile>
  <tile id="33">
   <animation>
    <frame tileid="33" duration="150"/>
    <frame tileid="33" duration="150"/>
    <frame tileid="33" duration="150"/>
    <frame tileid="33" duration="150"/>
    <frame tileid="103" duration="150"/>
    <frame tileid="173" duration="150"/>
    <frame tileid="243" duration="150"/>
    <frame tileid="313" duration="150"/>
    <frame tileid="383" duration="150"/>
    <frame tileid="453" duration="150"/>
    <frame tileid="523" duration="150"/>
    <frame tileid="593" duration="150"/>
   </animation>
  </tile>
  <tile id="34">
   <animation>
    <frame tileid="34" duration="150"/>
    <frame tileid="34" duration="150"/>
    <frame tileid="34" duration="150"/>
    <frame tileid="34" duration="150"/>
    <frame tileid="104" duration="150"/>
    <frame tileid="174" duration="150"/>
    <frame tileid="244" duration="150"/>
    <frame tileid="314" duration="150"/>
    <frame tileid="384" duration="150"/>
    <frame tileid="454" duration="150"/>
    <frame tileid="524" duration="150"/>
    <frame tileid="594" duration="150"/>
   </animation>
  </tile>
  <tile id="35">
   <animation>
    <frame tileid="35" duration="150"/>
    <frame tileid="35" duration="150"/>
    <frame tileid="35" duration="150"/>
    <frame tileid="35" duration="150"/>
    <frame tileid="105" duration="150"/>
    <frame tileid="175" duration="150"/>
    <frame tileid="245" duration="150"/>
    <frame tileid="315" duration="150"/>
    <frame tileid="385" duration="150"/>
    <frame tileid="455" duration="150"/>
    <frame tileid="525" duration="150"/>
    <frame tileid="595" duration="150"/>
   </animation>
  </tile>
  <tile id="36">
   <animation>
    <frame tileid="36" duration="150"/>
    <frame tileid="36" duration="150"/>
    <frame tileid="36" duration="150"/>
    <frame tileid="36" duration="150"/>
    <frame tileid="106" duration="150"/>
    <frame tileid="176" duration="150"/>
    <frame tileid="246" duration="150"/>
    <frame tileid="316" duration="150"/>
    <frame tileid="386" duration="150"/>
    <frame tileid="456" duration="150"/>
    <frame tileid="526" duration="150"/>
    <frame tileid="596" duration="150"/>
   </animation>
  </tile>
  <tile id="37">
   <animation>
    <frame tileid="37" duration="150"/>
    <frame tileid="37" duration="150"/>
    <frame tileid="37" duration="150"/>
    <frame tileid="37" duration="150"/>
    <frame tileid="107" duration="150"/>
    <frame tileid="177" duration="150"/>
    <frame tileid="247" duration="150"/>
    <frame tileid="317" duration="150"/>
    <frame tileid="387" duration="150"/>
    <frame tileid="457" duration="150"/>
    <frame tileid="527" duration="150"/>
    <frame tileid="597" duration="150"/>
   </animation>
  </tile>
  <tile id="38">
   <animation>
    <frame tileid="38" duration="150"/>
    <frame tileid="38" duration="150"/>
    <frame tileid="38" duration="150"/>
    <frame tileid="38" duration="150"/>
    <frame tileid="108" duration="150"/>
    <frame tileid="178" duration="150"/>
    <frame tileid="248" duration="150"/>
    <frame tileid="318" duration="150"/>
    <frame tileid="388" duration="150"/>
    <frame tileid="458" duration="150"/>
    <frame tileid="528" duration="150"/>
    <frame tileid="598" duration="150"/>
   </animation>
  </tile>
  <tile id="39">
   <animation>
    <frame tileid="39" duration="150"/>
    <frame tileid="39" duration="150"/>
    <frame tileid="39" duration="150"/>
    <frame tileid="39" duration="150"/>
    <frame tileid="109" duration="150"/>
    <frame tileid="179" duration="150"/>
    <frame tileid="249" duration="150"/>
    <frame tileid="319" duration="150"/>
    <frame tileid="389" duration="150"/>
    <frame tileid="459" duration="150"/>
    <frame tileid="529" duration="150"/>
    <frame tileid="599" duration="150"/>
   </animation>
  </tile>
  <tile id="40">
   <animation>
    <frame tileid="40" duration="150"/>
    <frame tileid="40" duration="150"/>
    <frame tileid="40" duration="150"/>
    <frame tileid="40" duration="150"/>
    <frame tileid="110" duration="150"/>
    <frame tileid="180" duration="150"/>
    <frame tileid="250" duration="150"/>
    <frame tileid="320" duration="150"/>
    <frame tileid="390" duration="150"/>
    <frame tileid="460" duration="150"/>
    <frame tileid="530" duration="150"/>
    <frame tileid="600" duration="150"/>
   </animation>
  </tile>
  <tile id="41">
   <animation>
    <frame tileid="41" duration="150"/>
    <frame tileid="41" duration="150"/>
    <frame tileid="41" duration="150"/>
    <frame tileid="41" duration="150"/>
    <frame tileid="111" duration="150"/>
    <frame tileid="181" duration="150"/>
    <frame tileid="251" duration="150"/>
    <frame tileid="321" duration="150"/>
    <frame tileid="391" duration="150"/>
    <frame tileid="461" duration="150"/>
    <frame tileid="531" duration="150"/>
    <frame tileid="601" duration="150"/>
   </animation>
  </tile>
  <tile id="42">
   <animation>
    <frame tileid="42" duration="150"/>
    <frame tileid="42" duration="150"/>
    <frame tileid="42" duration="150"/>
    <frame tileid="42" duration="150"/>
    <frame tileid="112" duration="150"/>
    <frame tileid="182" duration="150"/>
    <frame tileid="252" duration="150"/>
    <frame tileid="322" duration="150"/>
    <frame tileid="392" duration="150"/>
    <frame tileid="462" duration="150"/>
    <frame tileid="532" duration="150"/>
    <frame tileid="602" duration="150"/>
   </animation>
  </tile>
  <tile id="43">
   <animation>
    <frame tileid="43" duration="150"/>
    <frame tileid="43" duration="150"/>
    <frame tileid="43" duration="150"/>
    <frame tileid="43" duration="150"/>
    <frame tileid="113" duration="150"/>
    <frame tileid="183" duration="150"/>
    <frame tileid="253" duration="150"/>
    <frame tileid="323" duration="150"/>
    <frame tileid="393" duration="150"/>
    <frame tileid="463" duration="150"/>
    <frame tileid="533" duration="150"/>
    <frame tileid="603" duration="150"/>
   </animation>
  </tile>
  <tile id="44">
   <animation>
    <frame tileid="44" duration="150"/>
    <frame tileid="44" duration="150"/>
    <frame tileid="44" duration="150"/>
    <frame tileid="44" duration="150"/>
    <frame tileid="114" duration="150"/>
    <frame tileid="184" duration="150"/>
    <frame tileid="254" duration="150"/>
    <frame tileid="324" duration="150"/>
    <frame tileid="394" duration="150"/>
    <frame tileid="464" duration="150"/>
    <frame tileid="534" duration="150"/>
    <frame tileid="604" duration="150"/>
   </animation>
  </tile>
  <tile id="49">
   <animation>
    <frame tileid="49" duration="150"/>
    <frame tileid="49" duration="150"/>
    <frame tileid="49" duration="150"/>
    <frame tileid="49" duration="150"/>
    <frame tileid="119" duration="150"/>
    <frame tileid="189" duration="150"/>
    <frame tileid="259" duration="150"/>
    <frame tileid="329" duration="150"/>
    <frame tileid="399" duration="150"/>
    <frame tileid="469" duration="150"/>
    <frame tileid="539" duration="150"/>
    <frame tileid="609" duration="150"/>
   </animation>
  </tile>
  <tile id="50">
   <animation>
    <frame tileid="50" duration="150"/>
    <frame tileid="50" duration="150"/>
    <frame tileid="50" duration="150"/>
    <frame tileid="50" duration="150"/>
    <frame tileid="120" duration="150"/>
    <frame tileid="190" duration="150"/>
    <frame tileid="260" duration="150"/>
    <frame tileid="330" duration="150"/>
    <frame tileid="400" duration="150"/>
    <frame tileid="470" duration="150"/>
    <frame tileid="540" duration="150"/>
    <frame tileid="610" duration="150"/>
   </animation>
  </tile>
  <tile id="51">
   <animation>
    <frame tileid="51" duration="150"/>
    <frame tileid="51" duration="150"/>
    <frame tileid="51" duration="150"/>
    <frame tileid="51" duration="150"/>
    <frame tileid="121" duration="150"/>
    <frame tileid="191" duration="150"/>
    <frame tileid="261" duration="150"/>
    <frame tileid="331" duration="150"/>
    <frame tileid="401" duration="150"/>
    <frame tileid="471" duration="150"/>
    <frame tileid="541" duration="150"/>
    <frame tileid="611" duration="150"/>
   </animation>
  </tile>
  <tile id="52">
   <animation>
    <frame tileid="52" duration="150"/>
    <frame tileid="52" duration="150"/>
    <frame tileid="52" duration="150"/>
    <frame tileid="52" duration="150"/>
    <frame tileid="122" duration="150"/>
    <frame tileid="192" duration="150"/>
    <frame tileid="262" duration="150"/>
    <frame tileid="332" duration="150"/>
    <frame tileid="402" duration="150"/>
    <frame tileid="472" duration="150"/>
    <frame tileid="542" duration="150"/>
    <frame tileid="612" duration="150"/>
   </animation>
  </tile>
  <tile id="53">
   <animation>
    <frame tileid="53" duration="150"/>
    <frame tileid="53" duration="150"/>
    <frame tileid="53" duration="150"/>
    <frame tileid="53" duration="150"/>
    <frame tileid="123" duration="150"/>
    <frame tileid="193" duration="150"/>
    <frame tileid="263" duration="150"/>
    <frame tileid="333" duration="150"/>
    <frame tileid="403" duration="150"/>
    <frame tileid="473" duration="150"/>
    <frame tileid="543" duration="150"/>
    <frame tileid="613" duration="150"/>
   </animation>
  </tile>
  <tile id="54">
   <animation>
    <frame tileid="54" duration="150"/>
    <frame tileid="54" duration="150"/>
    <frame tileid="54" duration="150"/>
    <frame tileid="54" duration="150"/>
    <frame tileid="124" duration="150"/>
    <frame tileid="194" duration="150"/>
    <frame tileid="264" duration="150"/>
    <frame tileid="334" duration="150"/>
    <frame tileid="404" duration="150"/>
    <frame tileid="474" duration="150"/>
    <frame tileid="544" duration="150"/>
    <frame tileid="614" duration="150"/>
   </animation>
  </tile>
  <tile id="55">
   <animation>
    <frame tileid="55" duration="150"/>
    <frame tileid="55" duration="150"/>
    <frame tileid="55" duration="150"/>
    <frame tileid="55" duration="150"/>
    <frame tileid="125" duration="150"/>
    <frame tileid="195" duration="150"/>
    <frame tileid="265" duration="150"/>
    <frame tileid="335" duration="150"/>
    <frame tileid="405" duration="150"/>
    <frame tileid="475" duration="150"/>
    <frame tileid="545" duration="150"/>
    <frame tileid="615" duration="150"/>
   </animation>
  </tile>
  <tile id="63">
   <animation>
    <frame tileid="63" duration="150"/>
    <frame tileid="63" duration="150"/>
    <frame tileid="63" duration="150"/>
    <frame tileid="63" duration="150"/>
    <frame tileid="133" duration="150"/>
    <frame tileid="203" duration="150"/>
    <frame tileid="273" duration="150"/>
    <frame tileid="343" duration="150"/>
    <frame tileid="413" duration="150"/>
    <frame tileid="483" duration="150"/>
    <frame tileid="553" duration="150"/>
    <frame tileid="623" duration="150"/>
   </animation>
  </tile>
  <tile id="64">
   <animation>
    <frame tileid="64" duration="150"/>
    <frame tileid="64" duration="150"/>
    <frame tileid="64" duration="150"/>
    <frame tileid="64" duration="150"/>
    <frame tileid="134" duration="150"/>
    <frame tileid="204" duration="150"/>
    <frame tileid="274" duration="150"/>
    <frame tileid="344" duration="150"/>
    <frame tileid="414" duration="150"/>
    <frame tileid="484" duration="150"/>
    <frame tileid="554" duration="150"/>
    <frame tileid="624" duration="150"/>
   </animation>
  </tile>
  <tile id="65">
   <animation>
    <frame tileid="65" duration="150"/>
    <frame tileid="65" duration="150"/>
    <frame tileid="65" duration="150"/>
    <frame tileid="65" duration="150"/>
    <frame tileid="135" duration="150"/>
    <frame tileid="205" duration="150"/>
    <frame tileid="275" duration="150"/>
    <frame tileid="345" duration="150"/>
    <frame tileid="415" duration="150"/>
    <frame tileid="485" duration="150"/>
    <frame tileid="555" duration="150"/>
    <frame tileid="625" duration="150"/>
   </animation>
  </tile>
  <tile id="68">
   <animation>
    <frame tileid="68" duration="150"/>
    <frame tileid="68" duration="150"/>
    <frame tileid="68" duration="150"/>
    <frame tileid="68" duration="150"/>
    <frame tileid="138" duration="150"/>
    <frame tileid="208" duration="150"/>
    <frame tileid="278" duration="150"/>
    <frame tileid="348" duration="150"/>
    <frame tileid="418" duration="150"/>
    <frame tileid="488" duration="150"/>
    <frame tileid="558" duration="150"/>
    <frame tileid="628" duration="150"/>
   </animation>
  </tile>
 </tileset>
 <tileset firstgid="1043" name="shinies" tilewidth="32" tileheight="32" tilecount="144" columns="24">
  <image source="../../../../../Desktop/2025/Jeeters_Castle/shinies.png" width="768" height="192"/>
  <tile id="0">
   <animation>
    <frame tileid="0" duration="150"/>
    <frame tileid="2" duration="150"/>
    <frame tileid="4" duration="150"/>
    <frame tileid="6" duration="150"/>
    <frame tileid="8" duration="150"/>
    <frame tileid="10" duration="150"/>
    <frame tileid="12" duration="150"/>
    <frame tileid="14" duration="150"/>
    <frame tileid="16" duration="150"/>
    <frame tileid="18" duration="150"/>
    <frame tileid="20" duration="150"/>
    <frame tileid="22" duration="150"/>
   </animation>
  </tile>
  <tile id="1">
   <animation>
    <frame tileid="1" duration="150"/>
    <frame tileid="3" duration="150"/>
    <frame tileid="5" duration="150"/>
    <frame tileid="7" duration="150"/>
    <frame tileid="9" duration="150"/>
    <frame tileid="11" duration="150"/>
    <frame tileid="13" duration="150"/>
    <frame tileid="15" duration="150"/>
    <frame tileid="17" duration="150"/>
    <frame tileid="19" duration="150"/>
    <frame tileid="21" duration="150"/>
    <frame tileid="23" duration="150"/>
   </animation>
  </tile>
  <tile id="24">
   <animation>
    <frame tileid="24" duration="150"/>
    <frame tileid="26" duration="150"/>
    <frame tileid="28" duration="150"/>
    <frame tileid="30" duration="150"/>
    <frame tileid="32" duration="150"/>
    <frame tileid="34" duration="150"/>
    <frame tileid="36" duration="150"/>
    <frame tileid="38" duration="150"/>
    <frame tileid="40" duration="150"/>
    <frame tileid="42" duration="150"/>
    <frame tileid="44" duration="150"/>
    <frame tileid="46" duration="150"/>
   </animation>
  </tile>
  <tile id="25">
   <animation>
    <frame tileid="25" duration="150"/>
    <frame tileid="27" duration="150"/>
    <frame tileid="29" duration="150"/>
    <frame tileid="31" duration="150"/>
    <frame tileid="33" duration="150"/>
    <frame tileid="35" duration="150"/>
    <frame tileid="37" duration="150"/>
    <frame tileid="39" duration="150"/>
    <frame tileid="41" duration="150"/>
    <frame tileid="43" duration="150"/>
    <frame tileid="45" duration="150"/>
    <frame tileid="47" duration="150"/>
   </animation>
  </tile>
  <tile id="48">
   <animation>
    <frame tileid="48" duration="150"/>
    <frame tileid="50" duration="150"/>
    <frame tileid="52" duration="150"/>
    <frame tileid="54" duration="150"/>
    <frame tileid="56" duration="150"/>
    <frame tileid="58" duration="150"/>
    <frame tileid="60" duration="150"/>
    <frame tileid="62" duration="150"/>
    <frame tileid="64" duration="150"/>
    <frame tileid="66" duration="150"/>
    <frame tileid="68" duration="150"/>
    <frame tileid="70" duration="150"/>
   </animation>
  </tile>
  <tile id="49">
   <animation>
    <frame tileid="49" duration="150"/>
    <frame tileid="51" duration="150"/>
    <frame tileid="53" duration="150"/>
    <frame tileid="55" duration="150"/>
    <frame tileid="57" duration="150"/>
    <frame tileid="59" duration="150"/>
    <frame tileid="61" duration="150"/>
    <frame tileid="63" duration="150"/>
    <frame tileid="65" duration="150"/>
    <frame tileid="67" duration="150"/>
    <frame tileid="69" duration="150"/>
    <frame tileid="71" duration="150"/>
   </animation>
  </tile>
  <tile id="72">
   <animation>
    <frame tileid="72" duration="150"/>
    <frame tileid="74" duration="150"/>
    <frame tileid="76" duration="150"/>
    <frame tileid="78" duration="150"/>
    <frame tileid="80" duration="150"/>
    <frame tileid="82" duration="150"/>
    <frame tileid="84" duration="150"/>
    <frame tileid="86" duration="150"/>
    <frame tileid="88" duration="150"/>
    <frame tileid="90" duration="150"/>
    <frame tileid="92" duration="150"/>
    <frame tileid="94" duration="150"/>
   </animation>
  </tile>
  <tile id="73">
   <animation>
    <frame tileid="73" duration="150"/>
    <frame tileid="75" duration="150"/>
    <frame tileid="77" duration="150"/>
    <frame tileid="79" duration="150"/>
    <frame tileid="81" duration="150"/>
    <frame tileid="83" duration="150"/>
    <frame tileid="85" duration="150"/>
    <frame tileid="87" duration="150"/>
    <frame tileid="89" duration="150"/>
    <frame tileid="91" duration="150"/>
    <frame tileid="93" duration="150"/>
    <frame tileid="95" duration="150"/>
   </animation>
  </tile>
  <tile id="96">
   <animation>
    <frame tileid="96" duration="150"/>
    <frame tileid="98" duration="150"/>
    <frame tileid="100" duration="150"/>
    <frame tileid="102" duration="150"/>
    <frame tileid="104" duration="150"/>
    <frame tileid="106" duration="150"/>
    <frame tileid="108" duration="150"/>
    <frame tileid="110" duration="150"/>
    <frame tileid="112" duration="150"/>
    <frame tileid="114" duration="150"/>
    <frame tileid="116" duration="150"/>
    <frame tileid="118" duration="150"/>
   </animation>
  </tile>
  <tile id="97">
   <animation>
    <frame tileid="97" duration="150"/>
    <frame tileid="99" duration="150"/>
    <frame tileid="101" duration="150"/>
    <frame tileid="103" duration="150"/>
    <frame tileid="105" duration="150"/>
    <frame tileid="107" duration="150"/>
    <frame tileid="109" duration="150"/>
    <frame tileid="111" duration="150"/>
    <frame tileid="113" duration="150"/>
    <frame tileid="115" duration="150"/>
    <frame tileid="117" duration="150"/>
    <frame tileid="119" duration="150"/>
   </animation>
  </tile>
  <tile id="120">
   <animation>
    <frame tileid="120" duration="150"/>
    <frame tileid="122" duration="150"/>
    <frame tileid="124" duration="150"/>
    <frame tileid="126" duration="150"/>
    <frame tileid="128" duration="150"/>
    <frame tileid="130" duration="150"/>
    <frame tileid="132" duration="150"/>
    <frame tileid="134" duration="150"/>
    <frame tileid="136" duration="150"/>
    <frame tileid="138" duration="150"/>
    <frame tileid="140" duration="150"/>
    <frame tileid="142" duration="150"/>
   </animation>
  </tile>
  <tile id="121">
   <animation>
    <frame tileid="121" duration="150"/>
    <frame tileid="123" duration="150"/>
    <frame tileid="125" duration="150"/>
    <frame tileid="127" duration="150"/>
    <frame tileid="129" duration="150"/>
    <frame tileid="131" duration="150"/>
    <frame tileid="133" duration="150"/>
    <frame tileid="135" duration="150"/>
    <frame tileid="137" duration="150"/>
    <frame tileid="139" duration="150"/>
    <frame tileid="141" duration="150"/>
    <frame tileid="143" duration="150"/>
   </animation>
  </tile>
 </tileset>
 <tileset firstgid="1187" name="Skyx32" tilewidth="32" tileheight="32" tilecount="510" columns="30">
  <image source="../../../../../Desktop/2025/Jeeters_Castle/Skyx32.png" width="960" height="544"/>
 </tileset>
 <tileset firstgid="1697" name="Spikes" tilewidth="32" tileheight="32" tilecount="24" columns="12">
  <image source="../../../../../Desktop/2025/Jeeters_Castle/Spikes.png" width="384" height="64"/>
  <tile id="0">
   <animation>
    <frame tileid="0" duration="150"/>
    <frame tileid="1" duration="150"/>
    <frame tileid="2" duration="150"/>
    <frame tileid="3" duration="150"/>
    <frame tileid="4" duration="150"/>
    <frame tileid="5" duration="150"/>
    <frame tileid="6" duration="150"/>
    <frame tileid="7" duration="150"/>
    <frame tileid="8" duration="150"/>
    <frame tileid="9" duration="150"/>
    <frame tileid="10" duration="150"/>
    <frame tileid="11" duration="150"/>
   </animation>
  </tile>
  <tile id="12">
   <animation>
    <frame tileid="12" duration="150"/>
    <frame tileid="13" duration="150"/>
    <frame tileid="14" duration="150"/>
    <frame tileid="15" duration="150"/>
    <frame tileid="16" duration="150"/>
    <frame tileid="17" duration="150"/>
    <frame tileid="18" duration="150"/>
    <frame tileid="19" duration="150"/>
    <frame tileid="20" duration="150"/>
    <frame tileid="21" duration="150"/>
    <frame tileid="22" duration="150"/>
    <frame tileid="23" duration="150"/>
   </animation>
  </tile>
 </tileset>
 <tileset firstgid="1721" name="stalactites" tilewidth="32" tileheight="32" tilecount="360" columns="6">
  <image source="../../../../../Desktop/2025/Jeeters_Castle/stalactites.png" width="192" height="1920"/>
  <tile id="4">
   <animation>
    <frame tileid="4" duration="150"/>
    <frame tileid="34" duration="150"/>
    <frame tileid="64" duration="150"/>
    <frame tileid="94" duration="150"/>
    <frame tileid="124" duration="150"/>
    <frame tileid="154" duration="150"/>
    <frame tileid="184" duration="150"/>
    <frame tileid="214" duration="150"/>
    <frame tileid="244" duration="150"/>
    <frame tileid="274" duration="150"/>
    <frame tileid="304" duration="150"/>
    <frame tileid="334" duration="150"/>
   </animation>
  </tile>
  <tile id="7">
   <animation>
    <frame tileid="7" duration="150"/>
    <frame tileid="37" duration="150"/>
    <frame tileid="67" duration="150"/>
    <frame tileid="97" duration="150"/>
    <frame tileid="127" duration="150"/>
    <frame tileid="157" duration="150"/>
    <frame tileid="187" duration="150"/>
    <frame tileid="217" duration="150"/>
    <frame tileid="247" duration="150"/>
    <frame tileid="277" duration="150"/>
    <frame tileid="307" duration="150"/>
    <frame tileid="337" duration="150"/>
   </animation>
  </tile>
  <tile id="10">
   <animation>
    <frame tileid="10" duration="150"/>
    <frame tileid="40" duration="150"/>
    <frame tileid="70" duration="150"/>
    <frame tileid="100" duration="150"/>
    <frame tileid="130" duration="150"/>
    <frame tileid="160" duration="150"/>
    <frame tileid="190" duration="150"/>
    <frame tileid="220" duration="150"/>
    <frame tileid="250" duration="150"/>
    <frame tileid="280" duration="150"/>
    <frame tileid="310" duration="150"/>
    <frame tileid="340" duration="150"/>
   </animation>
  </tile>
  <tile id="13">
   <animation>
    <frame tileid="13" duration="150"/>
    <frame tileid="43" duration="150"/>
    <frame tileid="73" duration="150"/>
    <frame tileid="103" duration="150"/>
    <frame tileid="133" duration="150"/>
    <frame tileid="163" duration="150"/>
    <frame tileid="193" duration="150"/>
    <frame tileid="223" duration="150"/>
    <frame tileid="253" duration="150"/>
    <frame tileid="283" duration="150"/>
    <frame tileid="313" duration="150"/>
    <frame tileid="343" duration="150"/>
   </animation>
  </tile>
  <tile id="16">
   <animation>
    <frame tileid="16" duration="150"/>
    <frame tileid="46" duration="150"/>
    <frame tileid="76" duration="150"/>
    <frame tileid="106" duration="150"/>
    <frame tileid="136" duration="150"/>
    <frame tileid="166" duration="150"/>
    <frame tileid="196" duration="150"/>
    <frame tileid="226" duration="150"/>
    <frame tileid="256" duration="150"/>
    <frame tileid="286" duration="150"/>
    <frame tileid="316" duration="150"/>
    <frame tileid="346" duration="150"/>
   </animation>
  </tile>
  <tile id="18">
   <animation>
    <frame tileid="18" duration="150"/>
    <frame tileid="48" duration="150"/>
    <frame tileid="78" duration="150"/>
    <frame tileid="108" duration="150"/>
    <frame tileid="138" duration="150"/>
    <frame tileid="168" duration="150"/>
    <frame tileid="198" duration="150"/>
    <frame tileid="228" duration="150"/>
    <frame tileid="258" duration="150"/>
    <frame tileid="288" duration="150"/>
    <frame tileid="318" duration="150"/>
    <frame tileid="348" duration="150"/>
   </animation>
  </tile>
  <tile id="19">
   <animation>
    <frame tileid="19" duration="150"/>
    <frame tileid="49" duration="150"/>
    <frame tileid="79" duration="150"/>
    <frame tileid="109" duration="150"/>
    <frame tileid="139" duration="150"/>
    <frame tileid="169" duration="150"/>
    <frame tileid="199" duration="150"/>
    <frame tileid="229" duration="150"/>
    <frame tileid="259" duration="150"/>
    <frame tileid="289" duration="150"/>
    <frame tileid="319" duration="150"/>
    <frame tileid="349" duration="150"/>
   </animation>
  </tile>
  <tile id="20">
   <animation>
    <frame tileid="20" duration="150"/>
    <frame tileid="50" duration="150"/>
    <frame tileid="80" duration="150"/>
    <frame tileid="110" duration="150"/>
    <frame tileid="140" duration="150"/>
    <frame tileid="170" duration="150"/>
    <frame tileid="200" duration="150"/>
    <frame tileid="230" duration="150"/>
    <frame tileid="260" duration="150"/>
    <frame tileid="290" duration="150"/>
    <frame tileid="320" duration="150"/>
    <frame tileid="350" duration="150"/>
   </animation>
  </tile>
  <tile id="21">
   <animation>
    <frame tileid="21" duration="150"/>
    <frame tileid="51" duration="150"/>
    <frame tileid="81" duration="150"/>
    <frame tileid="111" duration="150"/>
    <frame tileid="141" duration="150"/>
    <frame tileid="171" duration="150"/>
    <frame tileid="201" duration="150"/>
    <frame tileid="231" duration="150"/>
    <frame tileid="261" duration="150"/>
    <frame tileid="291" duration="150"/>
    <frame tileid="321" duration="150"/>
    <frame tileid="351" duration="150"/>
   </animation>
  </tile>
  <tile id="22">
   <animation>
    <frame tileid="22" duration="150"/>
    <frame tileid="52" duration="150"/>
    <frame tileid="82" duration="150"/>
    <frame tileid="112" duration="150"/>
    <frame tileid="142" duration="150"/>
    <frame tileid="172" duration="150"/>
    <frame tileid="202" duration="150"/>
    <frame tileid="232" duration="150"/>
    <frame tileid="262" duration="150"/>
    <frame tileid="292" duration="150"/>
    <frame tileid="322" duration="150"/>
    <frame tileid="352" duration="150"/>
   </animation>
  </tile>
  <tile id="23">
   <animation>
    <frame tileid="23" duration="150"/>
    <frame tileid="53" duration="150"/>
    <frame tileid="83" duration="150"/>
    <frame tileid="113" duration="150"/>
    <frame tileid="143" duration="150"/>
    <frame tileid="173" duration="150"/>
    <frame tileid="203" duration="150"/>
    <frame tileid="233" duration="150"/>
    <frame tileid="263" duration="150"/>
    <frame tileid="293" duration="150"/>
    <frame tileid="323" duration="150"/>
    <frame tileid="353" duration="150"/>
   </animation>
  </tile>
  <tile id="24">
   <animation>
    <frame tileid="24" duration="150"/>
    <frame tileid="54" duration="150"/>
    <frame tileid="84" duration="150"/>
    <frame tileid="114" duration="150"/>
    <frame tileid="144" duration="150"/>
    <frame tileid="174" duration="150"/>
    <frame tileid="204" duration="150"/>
    <frame tileid="234" duration="150"/>
    <frame tileid="264" duration="150"/>
    <frame tileid="294" duration="150"/>
    <frame tileid="324" duration="150"/>
    <frame tileid="354" duration="150"/>
   </animation>
  </tile>
  <tile id="25">
   <animation>
    <frame tileid="25" duration="150"/>
    <frame tileid="55" duration="150"/>
    <frame tileid="85" duration="150"/>
    <frame tileid="115" duration="150"/>
    <frame tileid="145" duration="150"/>
    <frame tileid="175" duration="150"/>
    <frame tileid="205" duration="150"/>
    <frame tileid="235" duration="150"/>
    <frame tileid="265" duration="150"/>
    <frame tileid="295" duration="150"/>
    <frame tileid="325" duration="150"/>
    <frame tileid="355" duration="150"/>
   </animation>
  </tile>
  <tile id="26">
   <animation>
    <frame tileid="26" duration="150"/>
    <frame tileid="56" duration="150"/>
    <frame tileid="86" duration="150"/>
    <frame tileid="116" duration="150"/>
    <frame tileid="146" duration="150"/>
    <frame tileid="176" duration="150"/>
    <frame tileid="206" duration="150"/>
    <frame tileid="236" duration="150"/>
    <frame tileid="266" duration="150"/>
    <frame tileid="296" duration="150"/>
    <frame tileid="326" duration="150"/>
    <frame tileid="356" duration="150"/>
   </animation>
  </tile>
  <tile id="27">
   <animation>
    <frame tileid="27" duration="150"/>
    <frame tileid="57" duration="150"/>
    <frame tileid="87" duration="150"/>
    <frame tileid="117" duration="150"/>
    <frame tileid="147" duration="150"/>
    <frame tileid="177" duration="150"/>
    <frame tileid="207" duration="150"/>
    <frame tileid="237" duration="150"/>
    <frame tileid="267" duration="150"/>
    <frame tileid="297" duration="150"/>
    <frame tileid="327" duration="150"/>
    <frame tileid="357" duration="150"/>
   </animation>
  </tile>
  <tile id="28">
   <animation>
    <frame tileid="28" duration="150"/>
    <frame tileid="58" duration="150"/>
    <frame tileid="88" duration="150"/>
    <frame tileid="118" duration="150"/>
    <frame tileid="148" duration="150"/>
    <frame tileid="178" duration="150"/>
    <frame tileid="208" duration="150"/>
    <frame tileid="238" duration="150"/>
    <frame tileid="268" duration="150"/>
    <frame tileid="298" duration="150"/>
    <frame tileid="328" duration="150"/>
    <frame tileid="358" duration="150"/>
   </animation>
  </tile>
  <tile id="29">
   <animation>
    <frame tileid="29" duration="150"/>
    <frame tileid="59" duration="150"/>
    <frame tileid="89" duration="150"/>
    <frame tileid="119" duration="150"/>
    <frame tileid="149" duration="150"/>
    <frame tileid="179" duration="150"/>
    <frame tileid="209" duration="150"/>
    <frame tileid="239" duration="150"/>
    <frame tileid="269" duration="150"/>
    <frame tileid="299" duration="150"/>
    <frame tileid="329" duration="150"/>
    <frame tileid="359" duration="150"/>
   </animation>
  </tile>
 </tileset>
 <tileset firstgid="2081" name="Flying_stone" tilewidth="32" tileheight="32" tilecount="120" columns="30">
  <image source="../../../../../Desktop/2025/Jeeters_Castle/Flying_stone.png" width="960" height="128"/>
  <tile id="1">
   <animation>
    <frame tileid="1" duration="150"/>
    <frame tileid="6" duration="150"/>
    <frame tileid="11" duration="150"/>
    <frame tileid="16" duration="150"/>
    <frame tileid="21" duration="150"/>
    <frame tileid="26" duration="150"/>
   </animation>
  </tile>
  <tile id="2">
   <animation>
    <frame tileid="2" duration="150"/>
    <frame tileid="7" duration="150"/>
    <frame tileid="12" duration="150"/>
    <frame tileid="17" duration="150"/>
    <frame tileid="22" duration="150"/>
    <frame tileid="27" duration="150"/>
   </animation>
  </tile>
  <tile id="3">
   <animation>
    <frame tileid="3" duration="150"/>
    <frame tileid="8" duration="150"/>
    <frame tileid="13" duration="150"/>
    <frame tileid="18" duration="150"/>
    <frame tileid="23" duration="150"/>
    <frame tileid="28" duration="150"/>
   </animation>
  </tile>
  <tile id="30">
   <animation>
    <frame tileid="30" duration="150"/>
    <frame tileid="35" duration="150"/>
    <frame tileid="40" duration="150"/>
    <frame tileid="45" duration="150"/>
    <frame tileid="50" duration="150"/>
    <frame tileid="55" duration="150"/>
   </animation>
  </tile>
  <tile id="31">
   <animation>
    <frame tileid="31" duration="150"/>
    <frame tileid="36" duration="150"/>
    <frame tileid="41" duration="150"/>
    <frame tileid="46" duration="150"/>
    <frame tileid="51" duration="150"/>
    <frame tileid="56" duration="150"/>
   </animation>
  </tile>
  <tile id="32">
   <animation>
    <frame tileid="32" duration="150"/>
    <frame tileid="37" duration="150"/>
    <frame tileid="42" duration="150"/>
    <frame tileid="47" duration="150"/>
    <frame tileid="52" duration="150"/>
    <frame tileid="57" duration="150"/>
   </animation>
  </tile>
  <tile id="33">
   <animation>
    <frame tileid="33" duration="150"/>
    <frame tileid="38" duration="150"/>
    <frame tileid="43" duration="150"/>
    <frame tileid="48" duration="150"/>
    <frame tileid="53" duration="150"/>
    <frame tileid="58" duration="150"/>
   </animation>
  </tile>
  <tile id="60">
   <animation>
    <frame tileid="60" duration="150"/>
    <frame tileid="65" duration="150"/>
    <frame tileid="70" duration="150"/>
    <frame tileid="75" duration="150"/>
    <frame tileid="80" duration="150"/>
    <frame tileid="85" duration="150"/>
   </animation>
  </tile>
  <tile id="61">
   <animation>
    <frame tileid="61" duration="150"/>
    <frame tileid="66" duration="150"/>
    <frame tileid="71" duration="150"/>
    <frame tileid="76" duration="150"/>
    <frame tileid="81" duration="150"/>
    <frame tileid="86" duration="150"/>
   </animation>
  </tile>
  <tile id="62">
   <animation>
    <frame tileid="62" duration="150"/>
    <frame tileid="67" duration="150"/>
    <frame tileid="72" duration="150"/>
    <frame tileid="77" duration="150"/>
    <frame tileid="82" duration="150"/>
    <frame tileid="87" duration="150"/>
   </animation>
  </tile>
  <tile id="63">
   <animation>
    <frame tileid="63" duration="150"/>
    <frame tileid="68" duration="150"/>
    <frame tileid="73" duration="150"/>
    <frame tileid="78" duration="150"/>
    <frame tileid="83" duration="150"/>
    <frame tileid="88" duration="150"/>
   </animation>
  </tile>
  <tile id="90">
   <animation>
    <frame tileid="90" duration="150"/>
    <frame tileid="95" duration="150"/>
    <frame tileid="100" duration="150"/>
    <frame tileid="105" duration="150"/>
    <frame tileid="110" duration="150"/>
    <frame tileid="115" duration="150"/>
   </animation>
  </tile>
  <tile id="91">
   <animation>
    <frame tileid="91" duration="150"/>
    <frame tileid="96" duration="150"/>
    <frame tileid="101" duration="150"/>
    <frame tileid="106" duration="150"/>
    <frame tileid="111" duration="150"/>
    <frame tileid="116" duration="150"/>
   </animation>
  </tile>
  <tile id="92">
   <animation>
    <frame tileid="92" duration="150"/>
    <frame tileid="97" duration="150"/>
    <frame tileid="102" duration="150"/>
    <frame tileid="107" duration="150"/>
    <frame tileid="112" duration="150"/>
    <frame tileid="117" duration="150"/>
   </animation>
  </tile>
 </tileset>
 <tileset firstgid="2201" name="Flora2x32" tilewidth="32" tileheight="32" tilecount="510" columns="30">
  <image source="../../../../../Desktop/2025/Jeeters_Castle/Flora2x32.png" width="960" height="544"/>
 </tileset>
 <tileset firstgid="2711" name="Flora1x32" tilewidth="32" tileheight="32" tilecount="510" columns="30">
  <image source="../../../../../Desktop/2025/Jeeters_Castle/Flora1x32.png" width="960" height="544"/>
 </tileset>
 <tileset firstgid="3221" name="Fairys" tilewidth="32" tileheight="32" tilecount="12" columns="12">
  <image source="../../../../../Desktop/2025/Jeeters_Castle/Fairys.png" width="384" height="32"/>
  <tile id="0">
   <animation>
    <frame tileid="0" duration="150"/>
    <frame tileid="2" duration="150"/>
    <frame tileid="4" duration="150"/>
    <frame tileid="6" duration="150"/>
    <frame tileid="8" duration="150"/>
    <frame tileid="10" duration="150"/>
   </animation>
  </tile>
  <tile id="1">
   <animation>
    <frame tileid="1" duration="150"/>
    <frame tileid="3" duration="150"/>
    <frame tileid="5" duration="150"/>
    <frame tileid="7" duration="150"/>
    <frame tileid="9" duration="150"/>
    <frame tileid="11" duration="150"/>
   </animation>
  </tile>
 </tileset>
 <tileset firstgid="3233" name="Details" tilewidth="32" tileheight="32" tilecount="105" columns="7">
  <image source="../../../../../Desktop/2025/Jeeters_Castle/Details.png" width="224" height="480"/>
 </tileset>
 <tileset firstgid="3338" name="Clouds_x32" tilewidth="32" tileheight="32" tilecount="510" columns="30">
  <image source="../../../../../Desktop/2025/Jeeters_Castle/Clouds_x32.png" width="960" height="544"/>
 </tileset>
 <tileset firstgid="3848" name="Clouds_in_tiles" tilewidth="32" tileheight="32" tilecount="312" columns="24">
  <image source="../../../../../Desktop/2025/Jeeters_Castle/Clouds_in_tiles.png" width="768" height="416"/>
 </tileset>
 <tileset firstgid="4160" name="chest" tilewidth="32" tileheight="32" tilecount="24" columns="12">
  <image source="../../../../../Desktop/2025/Jeeters_Castle/chest.png" width="384" height="64"/>
  <tile id="0">
   <animation>
    <frame tileid="0" duration="150"/>
    <frame tileid="0" duration="150"/>
    <frame tileid="0" duration="150"/>
    <frame tileid="0" duration="150"/>
    <frame tileid="2" duration="150"/>
    <frame tileid="4" duration="150"/>
    <frame tileid="6" duration="150"/>
    <frame tileid="6" duration="150"/>
    <frame tileid="6" duration="150"/>
    <frame tileid="6" duration="150"/>
    <frame tileid="8" duration="150"/>
    <frame tileid="10" duration="150"/>
   </animation>
  </tile>
  <tile id="1">
   <animation>
    <frame tileid="1" duration="150"/>
    <frame tileid="1" duration="150"/>
    <frame tileid="1" duration="150"/>
    <frame tileid="1" duration="150"/>
    <frame tileid="3" duration="150"/>
    <frame tileid="5" duration="150"/>
    <frame tileid="7" duration="150"/>
    <frame tileid="7" duration="150"/>
    <frame tileid="7" duration="150"/>
    <frame tileid="7" duration="150"/>
    <frame tileid="9" duration="150"/>
    <frame tileid="11" duration="150"/>
   </animation>
  </tile>
  <tile id="12">
   <animation>
    <frame tileid="12" duration="150"/>
    <frame tileid="12" duration="150"/>
    <frame tileid="12" duration="150"/>
    <frame tileid="12" duration="150"/>
    <frame tileid="14" duration="150"/>
    <frame tileid="16" duration="150"/>
    <frame tileid="18" duration="150"/>
    <frame tileid="18" duration="150"/>
    <frame tileid="18" duration="150"/>
    <frame tileid="18" duration="150"/>
    <frame tileid="20" duration="150"/>
    <frame tileid="22" duration="150"/>
   </animation>
  </tile>
  <tile id="13">
   <animation>
    <frame tileid="13" duration="150"/>
    <frame tileid="13" duration="150"/>
    <frame tileid="13" duration="150"/>
    <frame tileid="13" duration="150"/>
    <frame tileid="15" duration="150"/>
    <frame tileid="17" duration="150"/>
    <frame tileid="19" duration="150"/>
    <frame tileid="19" duration="150"/>
    <frame tileid="19" duration="150"/>
    <frame tileid="19" duration="150"/>
    <frame tileid="21" duration="150"/>
    <frame tileid="23" duration="150"/>
   </animation>
  </tile>
 </tileset>
 <tileset firstgid="4184" name="Tileset" tilewidth="32" tileheight="32" tilecount="204" columns="17">
  <image source="../../../../../Desktop/2025/imgs/tilesets/craftpix-net-926878-free-platformer-game-tileset-pixel-art/TILED_files/Tileset.png" width="544" height="384"/>
  <tile id="1">
   <objectgroup draworder="index" id="2">
    <object id="1" x="0" y="10.3492" width="32" height="21.6508"/>
   </objectgroup>
  </tile>
  <tile id="3">
   <objectgroup draworder="index" id="2">
    <object id="1" x="0" y="10.6667" width="32" height="21.3333"/>
   </objectgroup>
  </tile>
  <tile id="6">
   <objectgroup draworder="index" id="2">
    <object id="1" x="0" y="8" width="32" height="23.1111"/>
   </objectgroup>
  </tile>
  <tile id="7">
   <objectgroup draworder="index" id="2">
    <object id="1" x="0" y="8" width="32" height="24.5397"/>
   </objectgroup>
  </tile>
  <tile id="8">
   <objectgroup draworder="index" id="2">
    <object id="1" x="0" y="8" width="32" height="22.4762"/>
   </objectgroup>
  </tile>
  <tile id="10">
   <objectgroup draworder="index" id="2">
    <object id="1" x="0" y="7.30159" width="32" height="24.6984"/>
   </objectgroup>
  </tile>
  <tile id="11">
   <objectgroup draworder="index" id="2">
    <object id="3" x="0" y="8.25397" width="32" height="23.746"/>
   </objectgroup>
  </tile>
  <tile id="12">
   <objectgroup draworder="index" id="2">
    <object id="1" x="8.25069" y="7.14286" width="23.7493" height="20.7944"/>
   </objectgroup>
  </tile>
  <tile id="13">
   <objectgroup draworder="index" id="2">
    <object id="1" x="0" y="9.68254" width="32" height="22.3175"/>
   </objectgroup>
  </tile>
  <tile id="15">
   <objectgroup draworder="index" id="2">
    <object id="1" x="0" y="10.5079" width="32" height="21.4921"/>
   </objectgroup>
  </tile>
  <tile id="17">
   <objectgroup draworder="index" id="2">
    <object id="1" x="8" y="8" width="24.0666" height="18.097"/>
   </objectgroup>
  </tile>
  <tile id="19">
   <objectgroup draworder="index" id="2">
    <object id="1" x="0" y="8" width="32" height="22.7937"/>
   </objectgroup>
  </tile>
  <tile id="21">
   <objectgroup draworder="index" id="2">
    <object id="1" x="0" y="8" width="27.8747" height="15.9642"/>
   </objectgroup>
  </tile>
  <tile id="22">
   <objectgroup draworder="index" id="2">
    <object id="1" x="0" y="10.5666" width="32" height="21.4334"/>
   </objectgroup>
  </tile>
  <tile id="26">
   <objectgroup draworder="index" id="2">
    <object id="1" x="0" y="9.36508" width="32" height="22.6349"/>
   </objectgroup>
  </tile>
  <tile id="27">
   <objectgroup draworder="index" id="2">
    <object id="1" x="3" y="0" width="26" height="20"/>
   </objectgroup>
  </tile>
  <tile id="30">
   <objectgroup draworder="index" id="2">
    <object id="1" x="3" y="0" width="26" height="14.4444"/>
   </objectgroup>
  </tile>
  <tile id="31">
   <objectgroup draworder="index" id="2">
    <object id="1" x="6.98136" y="7.30146" width="25.0186" height="21.5879"/>
   </objectgroup>
  </tile>
  <tile id="33">
   <objectgroup draworder="index" id="2">
    <object id="6" x="0" y="8.57143" width="32" height="23.4286"/>
   </objectgroup>
  </tile>
  <tile id="44">
   <objectgroup draworder="index" id="2">
    <object id="1" x="0" y="10.8254" width="32" height="21.1746"/>
   </objectgroup>
  </tile>
  <tile id="47">
   <objectgroup draworder="index" id="2">
    <object id="1" x="0" y="11.7778" width="32" height="20.2222"/>
   </objectgroup>
  </tile>
  <tile id="49">
   <objectgroup draworder="index" id="2">
    <object id="1" x="3" y="0" width="26" height="20"/>
   </objectgroup>
  </tile>
  <tile id="51">
   <objectgroup draworder="index" id="2">
    <object id="1" x="8.88536" y="7.46032" width="23.1146" height="22.5397"/>
   </objectgroup>
  </tile>
  <tile id="55">
   <objectgroup draworder="index" id="2">
    <object id="1" x="0" y="9.52274" width="32" height="18.8279"/>
   </objectgroup>
  </tile>
  <tile id="60">
   <objectgroup draworder="index" id="2">
    <object id="1" x="0" y="0" width="29" height="17.1905"/>
   </objectgroup>
  </tile>
  <tile id="62">
   <objectgroup draworder="index" id="2">
    <object id="1" x="0" y="9.36508" width="32" height="22.6349"/>
   </objectgroup>
  </tile>
  <tile id="63">
   <objectgroup draworder="index" id="2">
    <object id="1" x="0" y="6.34921" width="32" height="23.6508"/>
   </objectgroup>
  </tile>
  <tile id="65">
   <objectgroup draworder="index" id="2">
    <object id="1" x="0" y="7.61905" width="32" height="15.873"/>
   </objectgroup>
  </tile>
  <tile id="66">
   <objectgroup draworder="index" id="2">
    <object id="1" x="0" y="11.2698" width="32" height="20.7302"/>
   </objectgroup>
  </tile>
  <tile id="67">
   <objectgroup draworder="index" id="2">
    <object id="2" x="0" y="8.88889" width="32" height="23.1111"/>
   </objectgroup>
  </tile>
  <tile id="69">
   <objectgroup draworder="index" id="2">
    <object id="1" x="3" y="0" width="26" height="20"/>
   </objectgroup>
  </tile>
  <tile id="71">
   <objectgroup draworder="index" id="2">
    <object id="1" x="3" y="0" width="25" height="20"/>
   </objectgroup>
  </tile>
  <tile id="74">
   <objectgroup draworder="index" id="2">
    <object id="1" x="2.68267" y="0" width="29.3173" height="18.3693"/>
   </objectgroup>
  </tile>
  <tile id="76">
   <objectgroup draworder="index" id="2">
    <object id="1" x="0" y="0" width="30" height="17.148"/>
   </objectgroup>
  </tile>
  <tile id="77">
   <objectgroup draworder="index" id="2">
    <object id="1" x="0" y="8" width="32" height="21.6825"/>
   </objectgroup>
  </tile>
  <tile id="78">
   <objectgroup draworder="index" id="2">
    <object id="1" x="0" y="8" width="32" height="16.2229"/>
   </objectgroup>
  </tile>
  <tile id="79">
   <objectgroup draworder="index" id="2">
    <object id="1" x="0" y="8" width="32" height="20.254"/>
   </objectgroup>
  </tile>
  <tile id="81">
   <objectgroup draworder="index" id="2">
    <object id="1" x="0" y="11.4603" width="32" height="20.5397"/>
   </objectgroup>
  </tile>
  <tile id="82">
   <objectgroup draworder="index" id="2">
    <object id="1" x="0" y="12.8889" width="32" height="19.1111"/>
   </objectgroup>
  </tile>
  <tile id="83">
   <objectgroup draworder="index" id="2">
    <object id="1" x="3" y="0" width="26" height="20"/>
   </objectgroup>
  </tile>
  <tile id="85">
   <objectgroup draworder="index" id="2">
    <object id="1" x="0" y="80" width="32" height="20.6984"/>
    <object id="2" x="0" y="8" width="32" height="23.7121"/>
   </objectgroup>
  </tile>
  <tile id="87">
   <objectgroup draworder="index" id="2">
    <object id="1" x="0" y="8" width="32" height="23.4661"/>
   </objectgroup>
  </tile>
  <tile id="90">
   <objectgroup draworder="index" id="2">
    <object id="1" x="0" y="12.0952" width="32" height="19.9048"/>
   </objectgroup>
  </tile>
  <tile id="97">
   <objectgroup draworder="index" id="2">
    <object id="1" x="0" y="8.73016" width="32" height="13.9682"/>
   </objectgroup>
  </tile>
  <tile id="100">
   <objectgroup draworder="index" id="2">
    <object id="1" x="0" y="10.6349" width="32" height="12.9524"/>
   </objectgroup>
  </tile>
  <tile id="101">
   <objectgroup draworder="index" id="2">
    <object id="1" x="0" y="11.9365" width="32" height="20.0635"/>
   </objectgroup>
  </tile>
  <tile id="103">
   <objectgroup draworder="index" id="2">
    <object id="1" x="0" y="8" width="32" height="21.3651"/>
   </objectgroup>
  </tile>
  <tile id="106">
   <objectgroup draworder="index" id="2">
    <object id="1" x="0" y="8.88889" width="32" height="23.1111"/>
   </objectgroup>
  </tile>
  <tile id="108">
   <objectgroup draworder="index" id="2">
    <object id="1" x="0" y="10.1587" width="32" height="21.8413"/>
   </objectgroup>
  </tile>
  <tile id="109">
   <objectgroup draworder="index" id="2">
    <object id="1" x="0" y="9.36508" width="32" height="20.6349"/>
   </objectgroup>
  </tile>
  <tile id="110">
   <objectgroup draworder="index" id="2">
    <object id="1" x="0" y="10" width="32" height="22"/>
   </objectgroup>
  </tile>
  <tile id="112">
   <objectgroup draworder="index" id="2">
    <object id="1" x="0" y="14.8095" width="32" height="17.1905"/>
   </objectgroup>
  </tile>
  <tile id="115">
   <objectgroup draworder="index" id="2">
    <object id="3" x="3" y="0" width="26" height="13.336"/>
   </objectgroup>
  </tile>
  <tile id="116">
   <objectgroup draworder="index" id="2">
    <object id="1" x="3" y="0" width="26" height="14.4466"/>
   </objectgroup>
  </tile>
  <tile id="118">
   <objectgroup draworder="index" id="2">
    <object id="1" x="3" y="0" width="26" height="20"/>
   </objectgroup>
  </tile>
  <tile id="122">
   <objectgroup draworder="index" id="2">
    <object id="1" x="7.45736" y="7.61905" width="24.5426" height="21.1117"/>
   </objectgroup>
  </tile>
  <tile id="126">
   <objectgroup draworder="index" id="2">
    <object id="1" x="0" y="8.88795" width="29.3027" height="19.6214"/>
   </objectgroup>
  </tile>
  <tile id="127">
   <objectgroup draworder="index" id="2">
    <object id="1" x="8.56803" y="8.25397" width="23.432" height="17.3033"/>
   </objectgroup>
  </tile>
  <tile id="128">
   <objectgroup draworder="index" id="2">
    <object id="1" x="0" y="8" width="32" height="22.6349"/>
   </objectgroup>
  </tile>
  <tile id="129">
   <objectgroup draworder="index" id="2">
    <object id="1" x="0" y="8" width="32" height="22.6349"/>
   </objectgroup>
  </tile>
  <tile id="130">
   <objectgroup draworder="index" id="2">
    <object id="1" x="0" y="8" width="32" height="20.0476"/>
   </objectgroup>
  </tile>
  <tile id="131">
   <objectgroup draworder="index" id="2">
    <object id="1" x="0" y="8" width="32" height="21.6825"/>
   </objectgroup>
  </tile>
  <tile id="132">
   <objectgroup draworder="index" id="2">
    <object id="1" x="0" y="8" width="32" height="22.0635"/>
   </objectgroup>
  </tile>
  <tile id="133">
   <objectgroup draworder="index" id="2">
    <object id="1" x="0" y="8" width="32" height="21.5238"/>
   </objectgroup>
  </tile>
  <tile id="134">
   <objectgroup draworder="index" id="2">
    <object id="1" x="0" y="8" width="32" height="20.4127"/>
   </objectgroup>
  </tile>
  <tile id="135">
   <objectgroup draworder="index" id="2">
    <object id="1" x="0" y="11.3016" width="32" height="20.6984"/>
   </objectgroup>
  </tile>
  <tile id="140">
   <objectgroup draworder="index" id="2">
    <object id="1" x="3" y="0" width="29" height="16.3066"/>
   </objectgroup>
  </tile>
  <tile id="142">
   <objectgroup draworder="index" id="2">
    <object id="1" x="-0.317334" y="0.158667" width="30" height="14.6093"/>
   </objectgroup>
  </tile>
  <tile id="143">
   <objectgroup draworder="index" id="2">
    <object id="1" x="2.69841" y="10.1905" width="24.2222" height="18.9524"/>
   </objectgroup>
  </tile>
  <tile id="150">
   <objectgroup draworder="index" id="2">
    <object id="1" x="0" y="10.9841" width="32" height="21.0159"/>
   </objectgroup>
  </tile>
  <tile id="153">
   <objectgroup draworder="index" id="2">
    <object id="1" x="3" y="0" width="26" height="20"/>
   </objectgroup>
  </tile>
  <tile id="155">
   <objectgroup draworder="index" id="2">
    <object id="1" x="3" y="0" width="25" height="20"/>
   </objectgroup>
  </tile>
  <tile id="158">
   <objectgroup draworder="index" id="2">
    <object id="1" x="3" y="0" width="26" height="20"/>
   </objectgroup>
  </tile>
  <tile id="161">
   <objectgroup draworder="index" id="2">
    <object id="1" x="9.04762" y="8.09524" width="22.9524" height="15.7143"/>
   </objectgroup>
  </tile>
  <tile id="165">
   <objectgroup draworder="index" id="2">
    <object id="1" x="0" y="9.84127" width="26.2857" height="16.127"/>
   </objectgroup>
  </tile>
  <tile id="166">
   <objectgroup draworder="index" id="2">
    <object id="1" x="10" y="8.88889" width="22" height="16.5079"/>
   </objectgroup>
  </tile>
  <tile id="168">
   <objectgroup draworder="index" id="2">
    <object id="1" x="0" y="10.3175" width="28.6667" height="16.2857"/>
   </objectgroup>
  </tile>
  <tile id="169">
   <objectgroup draworder="index" id="2">
    <object id="1" x="3" y="0" width="26" height="20"/>
   </objectgroup>
  </tile>
  <tile id="173">
   <objectgroup draworder="index" id="2">
    <object id="1" x="10.2063" y="12.8413" width="21.7937" height="19.1587"/>
   </objectgroup>
  </tile>
  <tile id="174">
   <objectgroup draworder="index" id="2">
    <object id="1" x="0" y="13.2698" width="20.3651" height="18.7302"/>
   </objectgroup>
  </tile>
  <tile id="182">
   <objectgroup draworder="index" id="2">
    <object id="2" x="0" y="28" width="32" height="4"/>
   </objectgroup>
  </tile>
  <tile id="183">
   <objectgroup draworder="index" id="2">
    <object id="1" x="0" y="27.8729" width="32" height="4"/>
   </objectgroup>
  </tile>
  <tile id="184">
   <objectgroup draworder="index" id="2">
    <object id="2" x="0" y="27.7106" width="32" height="4"/>
   </objectgroup>
  </tile>
  <tile id="185">
   <objectgroup draworder="index" id="2">
    <object id="1" x="0" y="27.513" width="32" height="4"/>
   </objectgroup>
  </tile>
  <tile id="187">
   <objectgroup draworder="index" id="2">
    <object id="1" x="0" y="13.8571" width="32" height="18.1429"/>
   </objectgroup>
  </tile>
  <tile id="192">
   <objectgroup draworder="index" id="2">
    <object id="1" x="0" y="11.746" width="32" height="20.254"/>
   </objectgroup>
  </tile>
  <tile id="193">
   <objectgroup draworder="index" id="2">
    <object id="1" x="3" y="0" width="29" height="17.1"/>
   </objectgroup>
  </tile>
  <tile id="194">
   <objectgroup draworder="index" id="2">
    <object id="1" x="0" y="0" width="30" height="15.5613"/>
   </objectgroup>
  </tile>
  <tile id="195">
   <objectgroup draworder="index" id="2">
    <object id="1" x="0" y="9.68254" width="32" height="22.3175"/>
   </objectgroup>
  </tile>
  <tile id="196">
   <objectgroup draworder="index" id="2">
    <object id="2" x="0" y="10.8729" width="32" height="21.1271"/>
   </objectgroup>
  </tile>
  <tile id="197">
   <objectgroup draworder="index" id="2">
    <object id="1" x="0" y="10.8729" width="32" height="21.1271"/>
   </objectgroup>
  </tile>
  <tile id="199">
   <objectgroup draworder="index" id="2">
    <object id="1" x="0" y="0" width="32" height="32"/>
   </objectgroup>
  </tile>
  <tile id="201">
   <objectgroup draworder="index" id="2">
    <object id="1" x="0" y="0" width="32" height="32"/>
   </objectgroup>
  </tile>
 </tileset>
 <tileset firstgid="4388" name="cave_entrance" tilewidth="32" tileheight="32" tilecount="24" columns="6">
  <image source="../../../../../Desktop/2025/imgs/tilesets/craftpix-net-926878-free-platformer-game-tileset-pixel-art/TILED_files/cave_entrance.png" width="192" height="128"/>
  <tile id="18">
   <objectgroup draworder="index" id="2">
    <object id="1" x="0" y="8" width="32" height="24.0368"/>
   </objectgroup>
  </tile>
  <tile id="19">
   <objectgroup draworder="index" id="2">
    <object id="1" x="0" y="8" width="32" height="23.8836"/>
   </objectgroup>
  </tile>
  <tile id="22">
   <objectgroup draworder="index" id="2">
    <object id="1" x="0" y="8" width="32" height="24.0368"/>
   </objectgroup>
  </tile>
  <tile id="23">
   <objectgroup draworder="index" id="2">
    <object id="1" x="0" y="8" width="32" height="23.7305"/>
   </objectgroup>
  </tile>
 </tileset>
 <group id="4" name="Background">
  <imagelayer id="13" name="Background_4" parallaxx="1.1" repeatx="1">
   <image source="../../../../../Desktop/2025/Jeeters_Castle/Skyx32.png" width="960" height="544"/>
  </imagelayer>
  <imagelayer id="16" name="Background_3" repeatx="1">
   <image source="../../../../../Desktop/2025/Jeeters_Castle/Clouds_x32.png" width="960" height="544"/>
  </imagelayer>
  <imagelayer id="14" name="Background_2" parallaxx="1.2" repeatx="1">
   <image source="../../../../../Desktop/2025/Jeeters_Castle/Flora1x32.png" width="960" height="544"/>
  </imagelayer>
  <imagelayer id="15" name="Background_1" parallaxx="1.3" repeatx="1">
   <image source="../../../../../Desktop/2025/Jeeters_Castle/Flora2x32.png" width="960" height="544"/>
  </imagelayer>
 </group>
 <layer id="17" name="Level_No_Collision" width="120" height="17">
  <data encoding="csv">
0,0,0,0,0,0,0,0,0,0,0,0,0,0,0,0,0,0,0,0,0,0,0,0,0,0,0,0,0,0,0,0,0,0,0,0,0,0,0,0,0,0,0,0,0,0,0,0,0,0,0,0,0,0,0,0,0,0,0,0,0,0,0,0,0,0,0,0,0,0,0,0,0,0,0,0,0,0,0,0,0,0,0,0,0,0,0,0,0,0,0,0,0,0,0,0,0,0,0,0,0,0,0,0,0,0,0,0,0,0,0,0,0,0,0,0,0,0,0,0,
0,0,0,0,0,0,0,0,0,0,0,0,0,0,0,0,0,0,0,0,0,0,0,0,0,0,0,0,0,0,0,0,0,0,0,0,0,0,0,0,0,0,0,0,0,0,0,0,0,0,0,0,0,0,0,0,0,0,0,0,0,0,0,0,0,0,0,0,0,0,0,0,0,0,0,0,0,0,0,0,0,0,0,0,0,0,0,0,0,0,0,0,0,0,0,0,0,0,0,0,0,0,0,0,0,0,0,0,0,0,0,0,0,0,0,0,0,0,0,0,
0,0,0,0,0,0,0,0,0,0,0,0,0,0,0,0,0,0,0,0,0,0,0,0,0,0,0,0,0,0,0,0,0,0,0,0,0,0,0,0,0,0,0,0,0,0,0,0,0,0,0,0,0,0,0,0,0,0,0,0,0,0,0,0,0,0,0,0,0,0,0,0,0,0,0,0,0,0,0,0,0,0,0,0,0,0,0,0,0,0,0,0,0,0,0,0,0,0,0,0,0,0,0,0,0,0,0,0,0,0,0,0,0,0,0,0,0,0,0,0,
0,0,0,0,0,0,0,0,0,0,0,0,0,0,0,0,0,0,0,0,0,0,0,0,0,0,0,0,0,0,0,0,0,0,0,0,0,0,0,0,0,0,0,0,0,0,0,0,0,0,0,0,0,0,0,0,0,0,0,0,0,0,0,0,0,0,0,0,0,0,0,0,0,0,0,0,0,0,0,0,0,0,0,0,0,0,0,0,0,0,0,0,0,0,0,0,0,0,0,0,0,0,0,0,0,0,0,0,0,0,0,0,0,0,0,0,0,0,0,0,
0,0,0,0,0,0,0,0,0,0,0,0,0,0,0,0,0,0,0,0,0,0,0,0,0,0,0,0,0,0,0,0,0,0,0,0,0,0,0,0,0,0,0,0,0,0,0,0,0,0,0,0,0,0,0,0,0,0,0,0,0,0,0,0,0,0,0,0,0,0,0,0,0,0,0,0,0,0,0,0,0,0,0,0,0,0,0,0,0,0,0,0,0,0,0,0,0,0,0,0,0,0,0,0,0,0,0,0,0,0,0,0,0,0,0,0,0,0,0,0,
0,0,0,0,0,0,0,0,0,0,0,0,0,0,0,0,0,0,0,0,0,0,0,0,0,0,0,0,0,0,0,0,0,0,0,0,0,0,0,0,0,0,0,0,0,0,0,0,0,0,0,0,0,0,0,0,0,0,0,0,0,0,0,0,0,0,0,0,0,0,0,0,0,0,0,0,0,0,0,0,0,0,0,0,0,0,0,0,0,0,0,0,0,0,0,0,0,0,0,0,0,0,0,0,0,0,0,0,0,0,0,0,0,0,0,0,0,0,0,0,
0,0,0,0,0,0,0,0,0,0,0,0,0,0,0,0,0,0,0,0,0,0,0,0,0,0,0,0,0,0,0,0,0,0,0,0,0,0,0,0,0,0,0,0,0,0,0,0,0,0,0,0,0,0,0,0,0,0,0,0,0,0,0,0,0,0,0,0,0,0,0,0,0,0,0,0,0,0,0,0,0,0,0,0,0,0,0,0,0,0,0,0,0,0,0,0,0,0,0,0,0,0,0,0,0,0,0,0,0,0,0,0,0,0,0,0,0,0,0,0,
0,0,0,0,0,0,0,0,0,0,0,0,0,0,0,0,0,0,0,0,0,0,0,0,0,0,0,0,0,0,0,0,0,0,0,0,0,0,0,0,0,0,0,0,0,0,0,0,0,0,0,0,0,0,0,0,0,0,0,0,0,0,0,0,0,0,0,0,0,0,0,0,0,0,0,0,0,0,0,0,0,0,0,0,0,0,0,0,0,0,0,0,0,0,0,0,0,0,0,0,0,0,0,0,0,0,0,0,0,0,0,0,0,0,0,0,0,0,0,0,
0,0,0,0,0,0,0,0,0,0,0,0,0,0,0,0,0,0,0,0,0,0,0,0,0,0,0,0,0,0,0,0,0,0,0,0,0,0,0,0,0,0,0,0,0,0,0,0,0,0,0,0,0,0,0,0,0,0,0,0,0,0,0,0,0,0,0,0,0,0,0,0,0,0,0,0,0,0,0,0,0,0,0,0,0,0,0,0,0,0,0,0,0,0,0,0,0,0,0,0,0,0,0,0,0,0,0,0,0,0,0,0,0,0,0,0,0,0,0,0,
0,0,0,0,0,0,0,0,0,0,0,0,0,0,0,0,0,0,0,0,0,0,0,0,0,0,0,0,0,0,0,0,0,0,0,0,0,0,0,0,0,0,0,0,0,0,0,0,0,0,0,0,0,0,0,0,0,0,0,0,0,0,0,0,0,0,0,0,0,0,0,0,0,0,0,0,0,0,0,0,0,0,0,0,0,0,0,0,0,0,0,0,0,0,0,0,0,0,0,0,0,0,0,0,0,0,0,0,0,0,0,0,0,0,0,0,0,0,0,0,
0,0,0,0,0,0,0,0,0,0,0,0,0,0,0,0,0,0,0,0,0,0,0,0,0,0,0,0,0,0,0,0,0,0,0,0,0,0,0,0,0,0,0,0,0,0,0,0,0,0,0,0,0,0,0,0,0,0,0,0,0,0,0,0,0,0,0,0,0,0,0,0,0,0,0,0,0,0,0,0,0,0,0,0,0,0,0,0,0,0,0,0,0,0,0,0,0,0,0,0,0,0,0,0,0,0,0,0,0,0,0,0,0,0,0,0,0,0,0,0,
0,0,0,0,0,0,0,0,0,0,0,0,0,0,0,0,0,0,0,0,0,0,0,0,0,0,0,0,0,0,0,0,0,0,0,0,0,0,0,0,0,0,0,0,0,0,0,0,0,0,0,0,0,0,0,0,0,0,0,0,0,0,0,0,0,0,0,0,0,0,0,0,0,0,0,0,0,0,0,0,0,0,0,0,0,0,0,0,0,0,0,0,0,0,0,0,0,0,0,0,0,0,0,0,0,0,0,0,0,0,0,0,0,0,0,0,0,0,0,0,
0,0,0,0,0,0,0,0,0,0,0,0,0,0,0,0,0,0,0,0,0,0,0,0,0,0,0,0,0,0,0,0,0,0,0,0,0,0,0,0,0,0,0,0,0,0,0,0,0,0,0,0,0,0,0,0,0,0,0,0,0,0,0,0,0,0,0,0,0,0,0,0,0,0,0,0,0,0,0,0,0,0,0,0,0,0,0,0,0,0,0,0,0,0,0,4398,4399,0,0,0,0,0,0,0,0,0,0,0,0,0,0,0,0,0,0,0,0,0,4394,4395,
0,0,0,0,0,0,0,0,0,0,0,0,0,0,0,0,0,0,0,0,0,0,0,0,0,0,0,0,0,0,0,0,0,0,0,0,0,0,0,0,0,0,0,0,0,0,0,0,0,0,0,0,0,0,0,0,0,0,0,0,0,0,0,0,0,0,0,0,0,0,0,0,0,0,0,0,0,0,0,0,0,0,0,0,0,0,0,0,0,0,0,0,0,0,0,4404,4405,0,0,0,0,0,0,0,0,0,0,0,0,0,0,0,0,0,0,0,0,0,4400,4401,
0,0,0,0,0,0,0,0,0,0,0,0,0,0,0,0,0,0,0,0,0,0,0,0,0,0,0,0,0,0,0,0,0,0,0,0,0,0,0,0,0,0,0,0,0,0,0,0,0,0,0,0,0,0,0,0,0,0,0,0,0,0,0,0,0,0,0,0,0,0,0,0,0,0,0,0,0,0,0,0,0,0,0,0,0,0,0,0,0,0,0,0,0,0,0,0,0,0,0,0,0,0,0,0,0,0,0,0,0,0,0,0,0,0,0,0,0,0,0,0,
0,0,0,0,0,0,0,0,0,0,0,0,0,0,0,0,0,0,0,0,0,0,0,0,0,0,0,0,0,0,0,0,0,0,0,0,0,0,0,0,0,0,0,0,0,0,0,0,0,0,0,0,0,0,0,0,0,0,0,0,0,0,0,0,0,0,0,0,0,0,0,0,0,4366,4367,4368,4369,0,0,0,0,0,0,0,0,0,0,0,0,0,0,0,0,0,0,0,0,0,0,0,0,0,0,0,0,0,4366,4367,4368,4369,0,0,0,0,0,0,0,0,0,0,
0,0,0,0,0,0,0,0,0,0,0,0,0,0,0,0,0,0,0,0,0,0,0,0,0,0,0,0,0,0,0,0,0,0,0,0,0,0,0,0,0,0,0,0,0,0,0,0,0,0,0,0,0,0,0,0,0,0,0,0,0,0,0,0,0,0,0,0,0,0,0,0,0,0,0,0,0,0,0,0,0,0,0,0,0,0,0,0,0,0,0,0,0,0,0,0,0,0,0,0,0,0,0,0,0,0,0,0,0,0,0,0,0,0,0,0,0,0,0,0
</data>
 </layer>
 <layer id="1" name="Level" width="120" height="17">
  <data encoding="csv">
0,0,0,0,0,0,0,0,0,0,0,0,0,0,0,0,0,0,0,0,0,0,0,0,0,0,0,0,0,0,0,0,0,0,0,0,0,0,0,0,0,0,0,0,0,0,0,0,0,0,0,0,0,0,0,0,0,0,0,0,0,0,0,0,0,0,0,0,0,0,0,0,0,0,0,0,0,0,0,0,0,0,0,0,0,0,0,0,0,0,0,0,0,0,0,0,0,0,0,0,0,0,0,0,0,0,0,0,0,0,0,0,0,0,0,0,0,0,4388,4389,
0,0,0,0,0,0,0,0,0,0,0,0,0,0,0,0,0,0,0,0,0,0,0,0,0,0,0,0,0,0,0,0,0,0,0,0,0,0,0,0,0,0,0,0,0,0,0,0,0,0,0,0,0,0,0,0,0,0,0,0,0,0,0,0,0,0,0,0,0,0,0,0,0,0,0,0,0,0,0,0,0,0,0,0,0,0,0,0,0,0,0,0,0,0,0,0,0,0,0,0,0,0,0,0,0,0,0,0,0,0,0,0,0,0,0,0,0,0,4388,4389,
0,0,0,0,0,0,0,0,0,0,0,0,0,0,0,0,0,0,0,0,0,0,0,0,0,0,0,0,0,0,0,0,0,0,0,0,0,0,0,0,0,0,0,0,0,0,0,0,0,0,0,0,0,0,0,0,0,0,0,0,0,0,0,0,0,0,0,0,0,0,0,0,0,0,0,0,0,0,0,0,0,0,0,0,0,0,0,0,0,0,0,0,0,0,0,0,0,0,0,0,0,0,0,0,0,0,0,0,0,0,0,0,0,0,0,0,0,0,4388,4389,
0,0,0,0,0,0,0,0,0,0,0,0,0,0,0,0,0,0,0,0,0,0,0,0,0,0,0,0,0,0,0,0,0,0,0,0,0,0,0,0,0,4190,4191,4191,4191,4191,4191,4191,4191,4192,0,0,0,0,0,0,0,0,0,0,0,0,0,0,0,0,0,0,0,0,0,0,0,0,0,0,0,0,0,0,0,0,0,0,0,0,0,0,0,0,0,0,0,0,0,0,0,0,0,0,0,0,0,0,0,0,0,0,0,0,0,0,0,0,0,0,0,0,4388,4389,
0,0,0,0,0,0,0,0,0,0,0,0,0,0,0,0,0,0,0,0,0,0,0,0,0,0,0,0,0,0,0,0,0,0,0,0,0,0,0,0,4206,4207,4208,4208,4208,4208,4208,4208,4208,4209,4210,0,0,0,4316,4317,4318,0,0,0,0,0,0,0,0,0,0,0,0,0,0,0,0,0,0,0,0,0,0,0,0,0,0,0,0,0,0,0,0,0,0,0,0,0,0,0,0,0,0,0,0,0,0,0,0,0,0,0,0,0,0,0,0,0,0,0,0,0,4388,4389,
0,0,0,0,0,0,0,0,0,0,0,0,0,0,0,0,0,0,0,0,0,0,0,0,0,0,0,4269,0,0,0,0,0,4274,0,0,0,4271,0,0,4223,4224,4225,4225,4225,4225,4225,4225,4225,4226,4227,0,0,0,0,0,0,0,0,0,0,0,0,0,0,0,0,0,0,0,0,0,0,0,0,0,0,0,0,0,0,0,0,0,0,0,0,0,0,0,0,0,0,0,0,0,0,0,0,0,0,0,0,0,0,0,0,0,0,0,0,0,0,0,0,0,0,0,4394,4389,
0,0,0,0,0,0,0,0,0,0,0,0,0,0,0,0,0,0,0,0,0,0,0,0,0,0,0,4286,4287,4287,4287,4287,4287,4291,4287,4287,4287,4288,0,0,4240,4241,4242,4242,4242,4242,4242,4242,4242,4243,4244,0,0,0,0,0,0,0,0,0,0,0,0,0,0,0,0,0,0,0,0,0,0,0,0,0,0,0,0,0,0,0,0,0,0,0,0,0,0,0,0,0,0,0,0,0,0,0,0,0,0,0,0,0,0,0,0,0,0,0,0,0,0,0,0,0,0,0,4394,4389,
0,0,0,0,0,0,0,0,0,0,0,0,0,0,0,0,0,0,0,0,0,0,0,0,0,4265,0,4303,4304,4304,4304,4304,4304,4304,4304,4304,4304,4305,0,0,4235,4236,4259,4259,4259,4259,4259,4259,4259,4238,4239,0,0,0,0,0,0,0,0,0,4274,0,0,0,0,0,0,0,0,0,0,0,0,0,0,0,0,0,0,0,0,0,0,0,0,0,0,0,0,0,0,0,0,0,0,0,0,0,0,0,0,0,0,0,0,0,0,0,0,0,0,0,0,0,0,0,0,0,4388,4389,
0,0,0,0,0,0,0,0,0,0,0,0,0,0,4199,0,0,0,0,0,0,0,0,0,4281,4282,0,4320,4321,4321,4321,4325,4321,4321,4325,4321,4321,4322,0,0,0,4253,0,0,0,0,0,0,0,4255,0,0,0,0,0,0,0,0,0,4290,4291,4292,0,0,0,0,0,4265,0,0,0,0,0,0,0,0,0,0,0,0,0,0,0,0,0,0,0,0,0,0,0,0,0,0,0,0,0,0,0,0,0,0,0,0,0,0,0,0,0,0,0,0,0,0,0,0,0,0,4388,4389,
0,0,0,0,0,0,0,0,0,0,4194,4197,0,4215,4216,4217,0,0,0,0,0,0,0,0,0,4299,0,4337,0,0,0,4342,0,0,4342,0,0,4339,0,0,0,0,0,0,0,0,0,0,0,0,0,0,0,0,0,0,0,0,4306,4307,4308,4309,4310,0,0,0,4281,4282,0,0,0,0,0,0,0,0,0,0,0,0,0,4357,4191,4191,4191,4191,4191,4191,4191,4191,4191,4191,4191,4191,4358,0,0,0,0,0,0,0,0,0,0,0,0,0,0,0,0,0,0,0,0,0,0,0,4394,4389,
0,0,0,0,0,4190,4191,4191,4191,4192,4211,4214,0,0,4233,0,0,0,0,0,0,0,0,4285,0,0,0,0,0,0,0,0,0,0,0,0,0,0,0,0,0,0,0,0,0,0,0,0,0,0,0,0,0,0,0,0,0,0,0,4324,4325,4326,0,0,0,0,0,4299,0,0,0,0,0,0,0,0,0,0,0,0,4190,4374,4208,4208,4208,4208,4208,4208,4208,4208,4208,4208,4208,4208,4375,4191,4192,0,0,0,0,0,0,0,0,0,0,0,0,0,0,0,0,0,0,0,0,0,4394,4389,
4191,4203,4203,4203,4191,4207,4225,4225,4359,4244,0,0,0,0,0,0,0,0,0,0,0,4327,0,4302,0,0,0,0,0,0,0,0,0,0,0,0,0,0,0,0,0,0,0,0,0,0,0,0,0,0,0,0,0,0,0,0,4327,0,0,0,4342,0,0,0,0,0,0,0,0,0,0,0,0,0,0,0,0,0,0,4190,4207,4225,4208,4208,4225,4225,4308,4308,4308,4308,4308,4308,4308,4308,4391,4392,4393,0,0,0,0,0,0,0,0,0,4249,4250,4251,0,0,0,0,0,0,0,0,0,4388,4389,
4225,4225,4225,4225,4225,4225,4225,4225,4221,0,0,0,0,0,0,0,0,0,0,4327,0,0,0,0,0,0,0,0,0,0,4261,4262,4263,0,0,0,0,0,0,0,0,0,0,0,0,0,0,0,0,0,0,0,0,0,0,0,0,0,0,0,0,0,0,0,0,0,0,0,0,0,0,0,0,0,0,0,0,0,0,4388,4389,4390,4220,4225,4225,4225,4308,4308,4308,4308,4308,4308,4308,4308,4397,0,0,0,0,0,0,0,0,0,0,0,0,4267,4268,0,0,0,0,0,0,0,0,0,0,0,
4225,4225,4225,4225,4225,4225,4225,4225,4209,4313,4203,4287,4191,4287,4191,4191,4191,4192,0,0,0,0,4379,4191,4192,0,0,0,0,0,4278,4279,4280,0,0,0,0,0,0,0,0,0,0,0,0,0,0,0,0,0,0,0,0,0,0,0,0,0,0,0,0,0,0,0,0,0,0,0,0,0,0,4269,0,0,0,0,0,0,0,4388,4389,4392,4224,4225,4225,4225,4308,4308,4308,4308,4308,4308,4308,4308,4403,0,0,0,0,0,0,0,0,0,0,0,0,0,0,0,0,0,0,0,0,0,0,0,0,0,
4220,4220,4220,4220,4220,4220,4225,4208,4208,4208,4208,4208,4208,4220,4208,4208,4208,4382,0,0,0,0,4387,4220,4209,4287,4191,4191,4191,4191,4207,4191,4209,4191,4191,4191,4191,4192,0,0,0,0,0,0,0,0,0,0,0,0,0,0,4190,4191,4191,4191,4191,4192,0,0,0,0,0,4311,4312,4313,4314,4314,4314,4314,4263,4286,4292,0,0,0,0,4190,4191,4406,4407,4408,4224,4225,4225,4225,4308,4308,4308,4308,4308,4308,4308,4308,4409,4410,4411,4287,4287,4191,4191,4191,4191,4191,4191,4192,0,0,0,4190,4191,4191,4191,4191,4191,4191,4191,4191,4406,4407,
4220,4225,4225,4225,4225,4225,4225,4225,4225,4225,4225,4225,4225,4220,4225,4208,4330,4330,4330,4330,4330,4330,4330,4220,4304,4225,4225,4225,4224,4224,4224,4224,4224,4224,4224,4224,4224,4209,4210,0,0,0,0,0,0,0,0,0,0,0,0,4206,4207,4208,4208,4208,4208,4209,4210,0,0,0,0,0,4329,4330,4331,0,4278,0,4280,4303,4365,0,0,0,0,4370,4224,4220,4224,4224,4224,4225,4225,4225,4308,4308,4308,4308,4308,4308,4308,4308,4308,4308,4308,4308,4308,4308,4224,4224,4224,4225,4226,4365,0,0,0,4370,4224,4225,4224,4224,4224,4224,4224,4224,4224,4225,
4220,4225,4225,4225,4225,4225,4225,4225,4225,4225,4220,4225,4330,4220,4225,4208,4330,4330,4330,4330,4330,4330,4330,4220,4304,4225,4225,4225,4224,4224,4224,4224,4224,4224,4224,4224,4224,4226,4227,0,0,0,0,0,0,0,0,0,0,0,0,4223,4224,4224,4224,4224,4224,4224,4227,0,0,0,0,4345,4346,4347,4348,4349,4295,4296,4297,4320,4382,0,0,0,0,4387,4220,4220,4403,4220,4220,4225,4225,4225,4225,4225,4308,4308,4308,4308,4308,4308,4308,4308,4308,4308,4308,4308,4224,4225,4226,4225,4226,4382,0,0,0,4387,4224,4225,4224,4224,4224,4224,4224,4224,4224,4224
</data>
 </layer>
 <layer id="19" name="Hazard" width="120" height="17">
  <data encoding="csv">
0,0,0,0,0,0,0,0,0,0,0,0,0,0,0,0,0,0,0,0,0,0,0,0,0,0,0,0,0,0,0,0,0,0,0,0,0,0,0,0,0,0,0,0,0,0,0,0,0,0,0,0,0,0,0,0,0,0,0,0,0,0,0,0,0,0,0,0,0,0,0,0,0,0,0,0,0,0,0,0,0,0,0,0,0,0,0,0,0,0,0,0,0,0,0,0,0,0,0,0,0,0,0,0,0,0,0,0,0,0,0,0,0,0,0,0,0,0,0,0,
0,0,0,0,0,0,0,0,0,0,0,0,0,0,0,0,0,0,0,0,0,0,0,0,0,0,0,0,0,0,0,0,0,0,0,0,0,0,0,0,0,0,0,0,0,0,0,0,0,0,0,0,0,0,0,0,0,0,0,0,0,0,0,0,0,0,0,0,0,0,0,0,0,0,0,0,0,0,0,0,0,0,0,0,0,0,0,0,0,0,0,0,0,0,0,0,0,0,0,0,0,0,0,0,0,0,0,0,0,0,0,0,0,0,0,0,0,0,0,0,
0,0,0,0,0,0,0,0,0,0,0,0,0,0,0,0,0,0,0,0,0,0,0,0,0,0,0,0,0,0,0,0,0,0,0,0,0,0,0,0,0,0,0,0,0,0,0,0,0,0,0,0,0,0,0,0,0,0,0,0,0,0,0,0,0,0,0,0,0,0,0,0,0,0,0,0,0,0,0,0,0,0,0,0,0,0,0,0,0,0,0,0,0,0,0,0,0,0,0,0,0,0,0,0,0,0,0,0,0,0,0,0,0,0,0,0,0,0,0,0,
0,0,0,0,0,0,0,0,0,0,0,0,0,0,0,0,0,0,0,0,0,0,0,0,0,0,0,0,0,0,0,0,0,0,0,0,0,0,0,0,0,0,0,0,0,0,0,0,0,0,0,0,0,0,0,0,0,0,0,0,0,0,0,0,0,0,0,0,0,0,0,0,0,0,0,0,0,0,0,0,0,0,0,0,0,0,0,0,0,0,0,0,0,0,0,0,0,0,0,0,0,0,0,0,0,0,0,0,0,0,0,0,0,0,0,0,0,0,0,0,
0,0,0,0,0,0,0,0,0,0,0,0,0,0,0,0,0,0,0,0,0,0,0,0,0,0,0,0,0,0,0,0,0,0,0,0,0,0,0,0,0,0,0,0,0,0,0,0,0,0,0,0,0,0,0,0,0,0,0,0,0,0,0,0,0,0,0,0,0,0,0,0,0,0,0,0,0,0,0,0,0,0,0,0,0,0,0,0,0,0,0,0,0,0,0,0,0,0,0,0,0,0,0,0,0,0,0,0,0,0,0,0,0,0,0,0,0,0,0,0,
0,0,0,0,0,0,0,0,0,0,0,0,0,0,0,0,0,0,0,0,0,0,0,0,0,0,0,0,0,0,0,0,0,0,0,0,0,0,0,0,0,0,0,0,0,0,0,0,0,0,0,0,0,0,0,0,0,0,0,0,0,0,0,0,0,0,0,0,0,0,0,0,0,0,0,0,0,0,0,0,0,0,0,0,0,0,0,0,0,0,0,0,0,0,0,0,0,0,0,0,0,0,0,0,0,0,0,0,0,0,0,0,0,0,0,0,0,0,0,0,
0,0,0,0,0,0,0,0,0,0,0,0,0,0,0,0,0,0,0,0,0,0,0,0,0,0,0,0,0,0,0,0,0,0,0,0,0,0,0,0,0,0,0,0,0,0,0,0,0,0,0,0,0,0,0,0,0,0,0,0,0,0,0,0,0,0,0,0,0,0,0,0,0,0,0,0,0,0,0,0,0,0,0,0,0,0,0,0,0,0,0,0,0,0,0,0,0,0,0,0,0,0,0,0,0,0,0,0,0,0,0,0,0,0,0,0,0,0,0,0,
0,0,0,0,0,0,0,0,0,0,0,0,0,0,0,0,0,0,0,0,0,0,0,0,0,0,0,0,0,0,0,0,0,0,0,0,0,0,0,0,0,0,0,0,0,0,0,0,0,0,0,0,0,0,0,0,0,0,0,0,0,0,0,0,0,0,0,0,0,0,0,0,0,0,0,0,0,0,0,0,0,0,0,0,0,0,0,0,0,0,0,0,0,0,0,0,0,0,0,0,0,0,0,0,0,0,0,0,0,0,0,0,0,0,0,0,0,0,0,0,
0,0,0,0,0,0,0,0,0,0,0,0,0,0,0,0,0,0,0,0,0,0,0,0,0,0,0,0,0,0,0,0,0,0,0,0,0,0,0,0,0,0,0,0,0,0,0,0,0,0,0,0,0,0,0,0,0,0,0,0,0,0,0,0,0,0,0,0,0,0,0,0,0,0,0,0,0,0,0,0,0,0,0,0,0,0,0,0,0,0,0,0,0,0,0,0,0,0,0,0,0,0,0,0,0,0,0,0,0,0,0,0,0,0,0,0,0,0,0,0,
0,0,0,0,0,0,0,0,0,0,0,0,0,0,0,0,0,0,0,0,0,0,0,0,0,0,0,0,0,0,0,0,0,0,0,0,0,0,0,0,0,0,0,0,0,0,0,0,0,0,0,0,0,0,0,0,0,0,0,0,0,0,0,0,0,0,0,0,0,0,0,0,0,0,0,0,0,0,0,0,0,0,0,0,0,0,0,0,0,0,0,0,0,0,0,0,0,0,0,0,0,0,0,0,0,0,0,0,0,0,0,0,0,0,0,0,0,0,0,0,
0,0,0,0,0,0,0,0,0,0,0,0,0,0,0,0,0,0,0,0,0,0,0,0,0,0,0,0,0,0,0,0,0,0,0,0,0,0,0,0,0,0,0,0,0,0,0,0,0,0,0,0,0,0,0,0,0,0,0,0,0,0,0,0,0,0,0,0,0,0,0,0,0,0,0,0,0,0,0,0,0,0,0,0,0,0,0,0,0,0,0,0,0,0,0,0,0,0,0,0,0,0,0,0,0,0,0,0,0,0,0,0,0,0,0,0,0,0,0,0,
0,0,0,0,0,0,0,0,0,0,0,0,0,0,0,0,0,0,0,0,0,0,0,0,0,0,0,0,0,0,0,0,0,0,0,0,0,0,0,0,0,0,0,0,0,0,0,0,0,0,0,0,0,0,0,0,0,0,0,0,0,0,0,0,0,0,0,0,0,0,0,0,0,0,0,0,0,0,0,0,0,0,0,0,0,0,0,0,0,0,0,0,0,0,0,0,0,0,0,0,0,0,0,0,0,0,0,0,0,0,0,0,0,0,0,0,0,0,0,0,
0,0,0,0,0,0,0,0,0,0,0,0,0,0,0,0,0,0,0,0,0,0,0,0,0,0,0,0,0,0,0,0,0,0,0,0,0,0,0,0,0,0,0,0,0,0,0,0,0,0,0,0,0,0,0,0,0,0,0,0,0,0,0,0,0,0,0,0,0,0,0,0,0,0,0,0,0,0,0,0,0,0,0,0,0,0,0,0,0,0,0,0,0,0,0,0,0,0,0,0,0,0,0,0,0,0,0,0,0,0,0,0,0,0,0,0,0,0,0,0,
0,0,0,0,0,0,0,0,0,0,0,0,0,0,0,0,0,0,4366,4367,4368,4369,0,0,0,0,0,0,0,0,0,0,0,0,0,0,0,0,0,0,0,0,0,0,0,0,0,0,0,0,0,0,0,0,0,0,0,0,0,0,0,0,0,0,0,0,0,0,0,0,0,0,0,0,0,0,0,0,0,0,0,0,0,0,0,0,0,0,0,0,0,0,0,0,0,0,0,0,0,0,0,0,0,0,0,0,0,0,0,0,0,0,0,0,0,0,0,0,0,0,
0,0,0,0,0,0,0,0,0,0,0,0,0,0,0,0,0,0,4383,4384,4385,4386,0,0,0,0,0,0,0,0,0,0,0,0,0,0,0,0,0,0,0,0,0,0,0,0,0,0,0,0,0,0,0,0,0,0,0,0,0,0,0,0,0,0,0,0,0,0,0,0,0,0,0,0,0,0,0,0,0,0,0,0,0,0,0,0,0,0,0,0,0,0,0,0,0,0,0,0,0,0,0,0,0,0,0,0,0,0,0,0,0,0,0,0,0,0,0,0,0,0,
0,0,0,0,0,0,0,0,0,0,0,0,0,0,0,0,0,0,0,0,0,0,0,0,0,0,0,0,0,0,0,0,0,0,0,0,0,0,0,0,0,0,0,0,0,0,0,0,0,0,0,0,0,0,0,0,0,0,0,0,0,0,0,0,0,0,0,0,0,0,0,0,0,0,0,0,0,0,0,0,0,0,0,0,0,0,0,0,0,0,0,0,0,0,0,0,0,0,0,0,0,0,0,0,0,0,0,0,0,0,0,0,0,0,0,0,0,0,0,0,
0,0,0,0,0,0,0,0,0,0,0,0,0,0,0,0,0,0,0,0,0,0,0,0,0,0,0,0,0,0,0,0,0,0,0,0,0,0,0,0,0,0,0,0,0,0,0,0,0,0,0,0,0,0,0,0,0,0,0,0,0,0,0,0,0,0,0,0,0,0,0,0,0,4383,4384,4385,4386,0,0,0,0,0,0,0,0,0,0,0,0,0,0,0,0,0,0,0,0,0,0,0,0,0,0,0,0,0,4383,4384,4385,0,0,0,0,0,0,0,0,0,0,0
</data>
 </layer>
 <objectgroup id="7" name="Characters" opacity="0.94">
  <object id="3" name="Minotaur_1" type="Enemy" x="464.417" y="250.396"/>
  <object id="4" name="Skeleton_Warrior" type="Enemy" x="520.287" y="401.853"/>
  <object id="6" name="Skeleton_Warrior" type="Enemy" x="871.889" y="424.24" width="17.1362" height="10.2817"/>
  <object id="7" name="Minotaur_1" type="Enemy" x="975.195" y="170.013" width="17.1362" height="10.2817"/>
  <object id="8" name="Skeleton_Warrior" type="Enemy" x="1113" y="426.573" width="17.1362" height="10.2817"/>
  <object id="9" name="Minotaur_1" type="Enemy" x="1384.38" y="60.5918" width="17.1362" height="10.2817"/>
  <object id="10" name="Skeleton_Warrior" type="Enemy" x="1743.47" y="420.705" width="17.1362" height="10.2817"/>
  <object id="11" name="Minotaur_1" type="Enemy" x="2119.93" y="425.373" width="17.1362" height="10.2817"/>
  <object id="12" name="Skeleton_Warrior" type="Enemy" x="2693.39" y="259.464" width="17.1362" height="10.2817"/>
  <object id="13" name="Minotaur_1" type="Enemy" x="2940.34" y="262.928" width="17.1362" height="10.2817"/>
  <object id="15" name="Level_2" type="Portal" x="3798.73" y="408.084" width="23.0818" height="44.8038" rotation="0.902733"/>
  <object id="118" name="Boss_Evil_Clown" type="Boss" x="3651.72" y="415.708" width="17.1362" height="10.2817"/>
  <object id="120" name="Player_Mage" type="Player" x="3435.1" y="324.214" width="9.20598" height="8.18749"/>
 </objectgroup>
 <objectgroup id="20" name="Materials">
  <object id="17" name="Coin" type="Material" x="142.478" y="351.711"/>
  <object id="18" name="Coin" type="Material" x="175.728" y="324.927"/>
  <object id="19" name="Coin" type="Material" x="300.892" y="326.211"/>
  <object id="20" name="Gem" type="Material" x="433.013" y="285.199"/>
  <object id="21" name="Gem" type="Material" x="492.345" y="285.227"/>
  <object id="22" name="Coin" type="Material" x="366.288" y="411.777"/>
  <object id="23" name="Coin" type="Material" x="399.593" y="411.633"/>
  <object id="24" name="Coin" type="Material" x="432.753" y="411.228"/>
  <object id="27" name="Coin" type="Material" x="367.487" y="295.449">
   <point/>
  </object>
  <object id="28" name="Coin" type="Material" x="334.973" y="294.594">
   <point/>
  </object>
  <object id="29" name="Coin" type="Material" x="623.892" y="381.537"/>
  <object id="30" name="Coin" type="Material" x="463.729" y="410.77"/>
  <object id="31" name="Coin" type="Material" x="495.536" y="409.534"/>
  <object id="32" name="Coin" type="Material" x="623.72" y="361.618"/>
  <object id="33" name="Coin" type="Material" x="623.72" y="320.665"/>
  <object id="34" name="Coin" type="Material" x="623.72" y="341.142"/>
  <object id="35" name="Coin" type="Material" x="685.5" y="350.979"/>
  <object id="36" name="Coin" type="Material" x="685.328" y="331.06"/>
  <object id="37" name="Coin" type="Material" x="685.328" y="290.107"/>
  <object id="38" name="Coin" type="Material" x="685.328" y="310.584"/>
  <object id="47" name="Coin" type="Material" x="751.364" y="319.75"/>
  <object id="48" name="Coin" type="Material" x="751.192" y="299.831"/>
  <object id="49" name="Coin" type="Material" x="751.192" y="258.878"/>
  <object id="50" name="Coin" type="Material" x="751.192" y="279.355"/>
  <object id="51" name="Coin" type="Material" x="815.525" y="222.089"/>
  <object id="52" name="Coin" type="Material" x="815.353" y="202.17"/>
  <object id="53" name="Coin" type="Material" x="815.353" y="161.217"/>
  <object id="54" name="Coin" type="Material" x="815.353" y="181.694"/>
  <object id="55" name="Gem" type="Material" x="1042.19" y="183.937"/>
  <object id="56" name="Gem" type="Material" x="1101.52" y="183.965"/>
  <object id="59" name="Gem" type="Material" x="911.597" y="181.666"/>
  <object id="62" name="Gem" type="Material" x="1170.67" y="182.517"/>
  <object id="63" name="Coin" type="Material" x="1231.62" y="471.991"/>
  <object id="64" name="Coin" type="Material" x="1231.45" y="452.072"/>
  <object id="65" name="Coin" type="Material" x="1231.45" y="411.119"/>
  <object id="66" name="Coin" type="Material" x="1231.45" y="431.596"/>
  <object id="67" name="Coin" type="Material" x="1081.62" y="438.792"/>
  <object id="68" name="Coin" type="Material" x="1039.01" y="378.208"/>
  <object id="69" name="Coin" type="Material" x="979.491" y="376.741"/>
  <object id="70" name="Coin" type="Material" x="1007.78" y="377.77"/>
  <object id="71" name="Coin" type="Material" x="1189.89" y="440.24"/>
  <object id="72" name="Coin" type="Material" x="1300.21" y="120.59"/>
  <object id="73" name="Coin" type="Material" x="1300.04" y="100.671"/>
  <object id="74" name="Coin" type="Material" x="1300.04" y="59.7185"/>
  <object id="75" name="Coin" type="Material" x="1300.04" y="80.1955"/>
  <object id="76" name="Coin" type="Material" x="1612.04" y="122.234"/>
  <object id="77" name="Coin" type="Material" x="1611.87" y="102.315"/>
  <object id="78" name="Coin" type="Material" x="1611.87" y="61.3615"/>
  <object id="79" name="Coin" type="Material" x="1611.87" y="81.8385"/>
  <object id="80" name="Gem" type="Material" x="1748.17" y="118.988"/>
  <object id="82" name="Gem" type="Material" x="1803.42" y="119.421"/>
  <object id="83" name="Gem" type="Material" x="1875.53" y="284.585"/>
  <object id="84" name="Gem" type="Material" x="1999.07" y="285.492"/>
  <object id="85" name="Coin" type="Material" x="1806.73" y="440.004"/>
  <object id="86" name="Coin" type="Material" x="1682.82" y="439.551"/>
  <object id="87" name="Coin" type="Material" x="1711.11" y="440.58"/>
  <object id="88" name="Coin" type="Material" x="1838.37" y="439.566"/>
  <object id="89" name="Gem" type="Material" x="1872.73" y="480.302"/>
  <object id="90" name="Gem" type="Material" x="1647.3" y="477.964"/>
  <object id="91" name="Gem" type="Material" x="2159.52" y="253.675"/>
  <object id="92" name="Coin" type="Material" x="2220.91" y="446.259"/>
  <object id="93" name="Coin" type="Material" x="2161.39" y="444.792"/>
  <object id="94" name="Coin" type="Material" x="2189.68" y="445.821"/>
  <object id="96" name="Coin" type="Material" x="2482.31" y="442.359"/>
  <object id="97" name="Coin" type="Material" x="2510.6" y="443.388"/>
  <object id="98" name="Coin" type="Material" x="2794.11" y="282.019"/>
  <object id="99" name="Coin" type="Material" x="2734.59" y="280.552"/>
  <object id="100" name="Coin" type="Material" x="2762.88" y="281.581"/>
  <object id="102" name="Coin" type="Material" x="3059.22" y="314.426"/>
  <object id="103" name="Coin" type="Material" x="3087.51" y="315.455"/>
  <object id="104" name="Coin" type="Material" x="3070.5" y="440.565"/>
  <object id="105" name="Coin" type="Material" x="3098.79" y="441.594"/>
  <object id="106" name="Coin" type="Material" x="3122.49" y="441.952"/>
  <object id="107" name="Coin" type="Material" x="3150.78" y="442.981"/>
  <object id="108" name="Coin" type="Material" x="3730.46" y="366.389"/>
  <object id="109" name="Coin" type="Material" x="3758.75" y="367.418"/>
  <object id="110" name="Coin" type="Material" x="3730.46" y="396.198"/>
  <object id="111" name="Coin" type="Material" x="3758.75" y="397.227"/>
  <object id="114" name="Coin" type="Material" x="3731.16" y="432.247"/>
  <object id="115" name="Coin" type="Material" x="3759.45" y="433.276"/>
 </objectgroup>
 <layer id="2" name="Foreground" width="120" height="17">
  <data encoding="csv">
0,0,0,0,0,0,0,0,0,0,0,0,0,0,0,0,0,0,0,0,0,0,0,0,0,0,0,0,0,0,0,0,0,0,0,0,0,0,0,0,0,0,0,0,0,0,0,0,0,0,0,0,0,0,0,0,0,0,0,0,0,0,0,0,0,0,0,0,0,0,0,0,0,0,0,0,0,0,0,0,0,0,0,0,0,0,0,0,0,0,0,0,0,0,0,0,0,0,0,0,0,0,0,0,0,0,0,0,0,0,0,0,0,0,0,0,0,0,0,0,
0,0,0,0,0,0,0,0,0,0,0,0,0,0,0,0,0,0,0,0,0,0,0,0,0,0,0,0,0,0,0,0,0,0,0,0,0,0,0,0,0,0,0,0,0,0,0,0,0,0,0,0,0,0,0,0,0,0,0,0,0,0,0,0,0,0,0,0,0,0,0,0,0,0,0,0,0,0,0,0,0,0,0,0,0,0,0,0,0,0,0,0,0,0,0,0,0,0,0,0,0,0,0,0,0,0,0,0,0,0,0,0,0,0,0,0,0,0,0,0,
0,0,0,0,20,0,22,23,0,25,26,0,0,0,0,0,0,0,0,0,0,0,0,0,0,0,0,0,0,0,0,0,0,0,0,0,0,0,0,0,0,0,0,27,28,0,0,0,0,0,0,0,0,0,0,0,0,0,0,0,0,0,0,0,0,0,0,0,0,0,0,0,0,0,0,0,0,0,0,0,0,0,0,0,0,0,0,0,0,0,0,0,0,0,0,0,0,0,0,0,0,0,0,0,0,0,0,0,0,0,0,0,0,0,0,0,0,0,0,0,
0,0,0,0,0,61,62,63,0,65,66,0,0,0,0,0,0,0,0,0,0,0,0,0,0,0,0,0,0,0,0,0,0,0,0,0,0,0,0,0,0,0,0,67,68,0,0,0,0,0,0,0,0,0,0,0,0,0,0,0,0,0,0,0,0,0,0,0,0,0,0,0,0,0,0,0,0,0,0,0,0,0,0,0,0,0,0,0,0,0,0,0,0,0,0,0,0,0,0,0,0,0,0,0,0,0,0,0,0,0,0,0,0,0,0,0,0,0,0,0,
0,0,0,0,0,101,102,103,104,105,106,0,0,0,0,0,0,0,0,0,0,0,0,0,0,0,0,0,0,0,0,0,0,0,0,0,0,0,0,0,0,0,0,107,108,0,0,0,0,0,0,0,0,0,0,0,0,0,0,0,0,0,0,0,0,0,0,0,0,0,0,0,0,0,0,0,0,0,0,0,0,0,0,0,0,0,0,0,0,0,0,0,0,0,0,0,0,0,0,0,0,0,0,0,0,0,0,0,0,0,0,0,0,0,0,0,0,0,0,0,
0,0,0,0,0,141,142,143,144,145,146,0,0,0,0,0,0,0,0,0,0,0,0,0,0,0,0,0,0,0,0,0,0,0,0,0,0,0,0,0,0,0,0,147,148,0,0,0,0,0,0,0,0,0,0,0,0,0,0,0,0,0,0,0,0,0,0,0,0,0,0,0,0,0,0,0,0,0,0,0,0,0,0,0,0,0,0,0,0,0,0,0,0,0,0,0,0,0,0,0,0,0,0,0,0,0,0,0,0,0,0,0,0,0,0,0,0,0,0,0,
0,0,0,0,180,181,182,183,184,185,186,0,0,0,0,0,0,0,0,0,0,0,0,0,0,0,0,0,0,0,0,0,0,0,0,0,0,0,0,0,0,0,0,187,188,0,0,0,0,0,0,0,0,0,0,0,0,0,0,0,0,0,0,0,0,0,0,0,0,0,0,0,0,0,0,0,0,0,0,0,0,0,0,0,0,0,0,0,0,0,0,0,0,0,0,0,0,0,0,0,0,0,0,0,0,0,0,0,0,0,0,0,0,0,0,0,0,0,0,0,
0,0,0,0,220,221,222,223,224,225,0,0,0,0,0,0,0,0,0,0,0,0,0,0,0,0,0,0,0,0,0,0,0,0,0,0,0,0,0,0,0,0,0,0,0,0,0,0,0,0,0,0,0,0,0,0,0,0,0,0,0,0,0,0,0,0,0,0,0,0,0,0,0,0,0,0,0,0,0,0,0,0,0,0,0,0,0,0,0,0,0,0,0,0,0,0,0,0,0,0,0,0,0,0,0,0,0,0,0,0,0,0,0,0,0,0,0,0,0,0,
0,0,0,0,0,261,262,263,264,0,266,0,0,0,0,0,0,0,0,0,0,0,0,0,0,0,0,0,0,0,0,0,0,0,0,0,0,0,0,0,0,0,0,0,0,0,0,0,0,0,0,0,0,0,0,0,0,0,0,0,0,205,206,0,0,0,0,0,0,0,0,0,0,0,0,0,0,0,0,0,0,0,0,0,0,0,0,0,0,0,0,0,0,0,0,0,0,0,0,0,0,0,0,0,0,0,0,0,0,0,0,0,0,0,0,0,0,0,0,0,
0,0,0,0,0,0,302,303,304,0,0,0,0,0,0,0,0,0,0,0,0,0,0,0,0,0,0,0,0,0,0,0,0,0,0,0,0,0,0,0,0,0,0,0,0,0,0,0,0,0,0,0,0,0,0,0,0,0,0,0,0,245,246,0,0,0,0,0,0,0,0,0,0,0,0,0,0,0,0,0,0,328,0,0,0,0,0,0,0,0,0,0,0,0,0,0,0,0,0,0,0,0,0,0,0,0,0,0,0,0,0,0,0,0,0,0,0,0,0,0,
0,0,0,0,0,341,342,343,344,0,0,0,0,0,0,0,0,0,0,0,0,0,0,0,0,0,0,0,0,0,0,0,0,0,0,0,0,0,0,0,0,0,0,0,0,0,0,0,0,0,0,0,0,0,0,0,0,0,0,0,0,0,0,0,0,0,0,0,0,0,0,0,0,0,0,0,0,0,0,0,0,0,0,0,0,0,0,0,0,0,0,0,0,0,0,0,0,0,0,0,0,0,0,0,0,0,0,0,0,0,0,0,0,0,0,0,0,0,0,0,
0,0,0,0,0,381,382,383,384,0,0,0,0,0,0,0,0,0,0,0,0,0,0,0,0,35,36,37,0,0,0,0,0,0,0,0,0,0,0,0,0,0,0,0,0,0,0,0,0,0,0,0,0,0,0,0,0,0,0,0,0,0,0,0,0,0,0,0,0,0,0,0,0,0,0,0,0,0,0,0,0,0,0,0,0,0,0,0,0,0,0,0,0,0,0,0,0,0,0,0,0,0,0,0,0,0,0,0,0,0,0,0,0,0,0,0,0,0,0,0,
0,0,0,0,0,0,0,0,0,41,42,0,0,0,0,0,0,0,0,0,0,0,0,0,0,75,76,77,0,0,0,0,0,0,0,0,0,0,0,0,0,0,0,0,0,0,0,0,0,0,0,0,0,0,0,0,0,0,0,0,0,0,0,0,0,0,0,0,0,0,0,0,0,0,0,0,0,0,0,0,0,0,0,0,0,0,0,0,0,0,0,0,0,0,0,0,0,0,0,0,0,0,0,0,0,0,0,0,0,0,0,0,0,0,0,0,0,0,0,0,
0,0,0,0,0,0,0,0,0,81,82,0,0,0,0,0,0,0,0,0,0,0,0,0,0,115,116,117,0,0,0,41,42,0,0,0,0,0,0,0,0,0,0,0,0,0,0,0,0,0,0,0,0,0,0,194,0,0,0,0,0,0,0,0,0,0,0,0,0,0,0,0,0,0,0,0,0,0,0,205,206,0,0,0,0,0,0,0,0,0,0,0,0,0,0,207,0,0,0,0,0,0,0,0,0,0,0,0,0,0,0,0,0,0,0,0,0,0,0,0,
2147486457,0,0,0,0,0,0,0,0,0,0,0,0,0,0,0,0,0,0,0,0,0,0,0,0,155,156,157,0,0,0,81,82,0,0,0,0,0,0,0,0,0,0,0,0,0,0,0,0,0,0,205,206,0,0,234,0,205,206,0,0,0,0,0,0,0,0,0,0,0,0,0,0,0,0,0,0,0,0,245,246,0,0,0,0,0,0,0,0,0,0,0,0,0,0,247,0,0,0,0,0,0,0,0,0,0,0,0,0,0,0,0,0,0,0,0,0,0,0,0,
0,0,0,0,0,0,0,0,0,0,122,0,0,0,0,0,0,0,0,0,0,0,0,0,0,0,0,0,0,0,0,0,0,0,0,0,0,0,0,0,0,0,0,0,0,0,0,0,0,0,0,245,246,0,0,0,0,245,246,0,0,0,0,0,0,0,0,0,0,0,0,0,0,0,0,0,0,0,0,0,0,0,0,0,0,0,0,0,0,0,0,0,0,0,0,0,0,0,0,0,0,0,0,0,0,0,0,0,0,0,0,0,0,0,0,0,0,0,0,0,
0,0,0,0,0,0,0,0,0,0,0,0,0,0,0,0,0,0,0,0,0,0,0,0,0,0,0,0,0,0,0,0,0,0,0,0,0,0,0,0,0,0,0,0,0,0,0,0,0,0,0,0,0,0,0,0,0,0,0,0,0,0,0,0,0,0,0,0,0,0,0,0,0,0,0,0,0,0,0,0,0,0,0,0,0,0,0,0,0,0,0,0,0,0,0,0,0,0,0,0,0,0,0,0,0,0,0,0,0,0,0,0,0,0,0,0,0,0,0,0
</data>
 </layer>
</map>
